!!!!SEGMENT: pl-sa--28-a-i-28--001_hasse-johann-adolf--leucippo-aria-1.krn
!!!cenid: 17xx:378
!!!COM: Hasse, Johann Adolf
!!!COM-rismID:
!!!CDT: 1699/03/25-1783/12/16
!!!CNT: German
!!!OTL: Leucippo - Aria 1
!!!PDT:
!!!AGN: Sacred
!!!SMS-siglum: PL-SA
!!!SMS-shelfmark: 28/A I 28
!!!SMS-shelfwork: 001 W
!!!NIFC-rismSourceID: 1001039718
!!!NIFC-islandoraID:
!!!URL-pdf-islandora:
!!!URL-scan: https://bc.bdsandomierz.pl/dlibra/publication/1261/edition/1229/content @EN{Scan on Cyfrowa Biblioteka Diecezjalna w Sandomierzu} @PL{Skany w portalu Cyfrowa Biblioteka Diecezjalna w Sandomierzu}
!!!ONB-nifc:
!!!AIN: 3 empty 1 viola 1 vox
!!!key:
**kern	**dynam	**kern	**dynam	**kern	**dynam	**kern	**dynam	**kern	**text
*part5	*part5	*part4	*part4	*part3	*part3	*part2	*part2	*part1	*part1
*group	*group	*group1	*group1	*group1	*group1	*group1	*group1	*group	*group
*staff5	*	*staff4	*	*staff3	*	*staff2	*	*staff1	*staff1
*Iempty	*	*Iviola	*	*Iempty	*	*Iempty	*	*Ivox	*
*I"Fundamento	*	*I"Alto Viola	*	*I"Viol # Secundo	*	*I"Viol # 1mo	*	*I"Canto	*
*I'F	*	*I'A Vla	*	*I'Vln. II	*	*I'Vln. I	*	*I'C	*
*clefF4	*	*clefC3	*	*clefG2	*	*clefG2	*	*clefC1	*
*k[b-]	*	*k[b-]	*	*k[b-]	*	*k[b-]	*	*k[b-]	*
*F:	*	*F:	*	*F:	*	*F:	*	*F:	*
*M2/4	*	*M2/4	*	*M2/4	*	*M2/4	*	*M2/4	*
=1	=1	=1	=1	=1	=1	=1	=1	=1	=1
*	*	*	*	*	*	*2\right	*	*	*
8r	.	8r	.	8r	.	4ccc\	.	4cc\	Gau-
!	!LO:DY:b:t=p&colon;	!	!	!	!LO:DY:b:t=piano	!	!	!	!
8F\L	p	8f\L	.	8a/L	p	.	.	.	.
8E\	.	8e\	.	8g/	.	4ccc\	.	4cc\	-de
8C\J	.	8c\J	.	8e/J	.	.	.	.	.
=2	=2	=2	=2	=2	=2	=2	=2	=2	=2
8r	.	8r	.	8r	.	4.cccT\	.	4.cc\	ma-
8F\L	.	8f\L	.	8a/L	.	.	.	.	.
8G\	.	8g\	.	8b-/	.	.	.	.	.
8A\J	.	8a\J	.	8cc/J	.	16bb-\LL	.	16b-\LL	-ter
.	.	.	.	.	.	16aa\JJ	.	16a\JJ	.
=3	=3	=3	=3	=3	=3	=3	=3	=3	=3
8r	.	8r	.	8r	.	(>8.gg\L	.	8.g\L	De-
!LO:TX:a:t=P:problem=mixed beam	!	!	!	!LO:TX:a:t=P:problem=mixed beam	!	!	!	!	!
8B-\L	.	8B-/L	.	8dd\L	.	.	.	.	.
.	.	.	.	.	.	32aa\LL	.	(>32a\LL	.
.	.	.	.	.	.	32bb-\JJJ)	.	32b-\JJJ)	.
8c\	.	8c/	.	8cc\	.	8aa\L	.	8a\	-o
8C/J	.	8c/J	.	8e/J	.	8gg\J	.	8g\	Ple-
=4	=4	=4	=4	=4	=4	=4	=4	=4	=4
8r	.	8r	.	8r	.	8.ffT\L	.	8.f/L	-na
8F\L	.	8f\L	.	8a/L	.	.	.	.	.
.	.	.	.	.	.	32ee\LL	.	32e/LL	.
.	.	.	.	.	.	32ff\JJJ	.	32f/JJJ	.
8A\	.	8a\	.	8c/	.	4cc\	.	4c/	no-
8G\J	.	8g\J	.	8B-/J	.	.	.	.	.
=5	=5	=5	=5	=5	=5	=5	=5	=5	=5
8r	.	8r	.	8A/L	.	4ccc\	.	4cc\	-vo
8F\L	.	8f\L	.	8a/	.	.	.	.	.
8E\	.	8e\	.	8g/	.	4ccc\	.	4cc\	gi-
!	!	!LO:TX:a:t=c	!	!	!	!	!	!	!
8C\J	.	8c\J	.	8e/J	.	.	.	.	.
=6	=6	=6	=6	=6	=6	=6	=6	=6	=6
8r	.	8r	.	8r	.	4.cccT\	.	4.cc\	-gne-
8F\L	.	8f\L	.	8a\L	.	.	.	.	.
8G\	.	8g\	.	8b-\	.	.	.	.	.
8A\J	.	8a\J	.	8cc\J	.	16bb-\LL	.	16b-\LL	-ns
.	.	.	.	.	.	16aa\JJ	.	16a\JJ	.
=7	=7	=7	=7	=7	=7	=7	=7	=7	=7
8r	.	8r	.	8r	.	(>8.gg\L	.	8.g\L	ſi-
!LO:TX:a:t=P:problem=mixed beam	!	!	!	!	!	!	!	!	!
!	!	!LO:TX:a:t=P:problem=mixed beam	!	!	!	!	!	!	!
8B-\L	.	8b-\L	.	8dd\L	.	.	.	.	.
.	.	.	.	.	.	32aa\LL	.	32a\LL	.
.	.	.	.	.	.	32bb-\JJJ)	.	32b-\JJJ	.
8c\	.	8cc\	.	8cc\	.	8aa\L	.	8a\	.
8C/J	.	8c/J	.	8e\J	.	8gg\J	.	8g\	-ne
!	!	!	!	!LO:LB:g=original	!	!	!	!LO:LB:g=original	!
=8	=8	=8	=8	=8	=8	=8	=8	=8	=8
8r	.	8r	.	8r	.	8.ff\L	.	8.f/L	Poe-
8F\L	.	8f\L	.	8a\L	.	.	.	.	.
.	.	.	.	.	.	32ee\LL	.	32e/LL	.
.	.	.	.	.	.	32ff\JJJ	.	32f/JJJ	.
!	!	!	!	!	!	!LO:LB:g=original	!	!	!
8A\	.	8a\	.	8cc\	.	4cc\	.	8c/	-na
8G\J	.	8g\J	.	8b-\J	.	.	.	8r	.
!LO:LB:g=original	!	!LO:LB:g=original	!	!	!	!	!	!	!
=9	=9	=9	=9	=9	=9	=9	=9	=9	=9
8r	.	8f\L	.	8a\L	.	8.ff\L	.	4f/	gau-
8F\L	.	8c\	.	8a\	.	.	.	.	.
.	.	.	.	.	.	32ee\LL	.	.	.
.	.	.	.	.	.	32ff\JJJ	.	.	.
8E\	.	8c\	.	8cc\	.	8gg\L	.	8g/	.
8F\J	.	8c\J	.	8ff\J	.	8aa\J	.	8a/	-de
=10	=10	=10	=10	=10	=10	=10	=10	=10	=10
8r	.	8r	.	8ff\L	.	8aa\L	.	8a\	ma-
!LO:TX:a:t=P:problem=mixed beam	!	!LO:TX:a:t=P:problem=mixed beam	!	!	!	!	!	!	!
8C/L	.	8c\L	.	8ee\J	.	8gg\J	.	8g\	-ter
8c\	.	8cc\	.	4r	.	4r	.	4r	.
8C/J	.	8c/J	.	.	.	.	.	.	.
=11	=11	=11	=11	=11	=11	=11	=11	=11	=11
8r	.	8r	.	(>8.ee\L	.	8.ggT\L	.	4g\	De-
8E\L	.	8c\L	.	.	.	.	.	.	.
.	.	.	.	32dd\LL	.	(>32ff\LL	.	.	.
.	.	.	.	32ee\JJJ)	.	32gg\JJJ)	.	.	.
8D\	.	8c\	.	8ff\L	.	8aa\L	.	8a\	-o
8C\J	.	8c\J	.	8gg\J	.	8bb-\J	.	8b-\	Ple-
=12	=12	=12	=12	=12	=12	=12	=12	=12	=12
8r	.	8r	.	8gg\L	.	8bb-\L	.	8b-\	-na
!LO:TX:a:t=P:problem=mixed beam	!	!LO:TX:a:t=P:problem=mixed beam	!	!	!	!	!	!	!
8FF/L	.	8c\L	.	8ff\J	.	8aa\J	.	8a\	.
8F\	.	8f\	.	4r	.	4r	.	4r	.
8FF/J	.	8F/J	.	.	.	.	.	.	.
=13	=13	=13	=13	=13	=13	=13	=13	=13	=13
8r	.	8r	.	8r	.	8.ccc\L	.	4a\	no-
8F\L	.	8a\L	.	8ff\L	.	.	.	.	.
.	.	.	.	.	.	(>32bb-\LL	.	.	.
.	.	.	.	.	.	32ccc\JJJ)	.	.	.
8B-\	.	8f\	.	8dd\	.	8ddd\L	.	8b-\	-vo
8G\J	.	8g\J	.	8b-\J	.	8ee\J	.	8cc\	gi-
!	!	!	!	!	!	!	!	!LO:LB:g=original	!
=14	=14	=14	=14	=14	=14	=14	=14	=14	=14
8r	.	8r	.	8r	.	8.ffT\L	.	8ff\L	.
!	!	!	!	!LO:TX:a:t=P:problem=mixed beam	!	!	!	!	!
8B-\L	.	8a\L	.	8cc\L	.	.	.	16ee\L	.
.	.	.	.	.	.	32ee\LL	.	16dd\JJ	.
.	.	.	.	.	.	32ff\JJJ	.	.	.
8E\	.	8g\	.	8c/	.	8gg\L	.	8cc\L	-gne-
8C\J	.	8e\J	.	8g/J	.	8b-\J	.	8b-\J	-ns
!	!	!	!	!	!	!LO:LB:g=original	!	!	!
=15	=15	=15	=15	=15	=15	=15	=15	=15	=15
.	.	.	.	8qqg/	.	.	.	.	.
8r	.	8r	.	8f/L	.	8a/L	.	8a\L	ſi-
8F\L	.	8c\L	.	(<16e/L	.	16g/L	.	16g\L	.
.	.	.	.	16f/JJ)	.	16a/JJ	.	16a\JJ	.
!	!	!	!	!LO:LB:g=original	!	!	!	!	!
8BB-\	.	8d\	.	8g/L	.	8b-/L	.	8b-\	.
8BBn\J	.	8d\J	.	8f/J	.	8a/J	.	8a\	-ne
=16	=16	=16	=16	=16	=16	=16	=16	=16	=16
!	!	!	!LO:DY:b:t=for	!	!LO:DY:b:t=for.	!	!LO:DY:b:t=for.	!	!
8r	.	8c\L	f	8f/L	f	8a/L	f	8a\	Poe-
!	!LO:DY:b:t=for.	!	!	!	!	!	!	!	!
8C/L	f	16c\L	.	8e/J	.	8g/J	.	8g\	-na
.	.	16d\JJ	.	.	.	.	.	.	.
8C/	.	8e\L	.	16e/LL	.	16g/LL	.	4r	.
.	.	.	.	16cc/	.	16cc/	.	.	.
8D/J	.	8f\J	.	16bn/	.	16bn/	.	.	.
.	.	.	.	16cc/JJ	.	16dd/JJ	.	.	.
=17	=17	=17	=17	=17	=17	=17	=17	=17	=17
!	!	!	!	!	!	!	!LO:DY:b:t=piano	!	!
!	!	!	!LO:DY:rj	!	!	!	!	!	!
!	!	!	!LO:DY:b	!	!	!	!	!	!
!	!LO:DY:b:t=pia	!	!	!	!	!	!	!	!
8E\L	p	8g\L	p	8cc/L	.	[<2cc	p	4g\	gau-
!	!	!	!	!	!LO:DY:b:t=pia.	!	!	!	!
8E\	.	8c\	.	8g/	p	.	.	.	.
8E\	.	8c\	.	8a/	.	.	.	(>8a\L	-de
8E\J	.	8g\J	.	8b-X/J	.	.	.	8b-\J)	.
!LO:LB:g=original	!	!LO:LB:g=original	!	!	!	!	!	!	!
=18	=18	=18	=18	=18	=18	=18	=18	=18	=18
8F\L	.	8f\L	.	8a/L	.	8cc\L]	.	16a\LL	ma-
.	.	.	.	.	.	.	.	16g\J	.
8F\	.	8f\	.	8a/	.	8cc\	.	8f\J	.
8F\	.	8f\	.	8a/	.	8cc\	.	8f/L	-ter
8E\J	.	8e\J	.	8g/J	.	8cc\J	.	8g/J	.
=19	=19	=19	=19	=19	=19	=19	=19	=19	=19
8F\L	.	8f\L	.	8a/L	.	8cc\L	.	8a\	De-
8F\	.	8f\	.	8a/	.	8cc\	.	4a\	.
8F#X\	.	8f#X\	.	8a/	.	8dd\	.	.	.
8F#\J	.	8f#\J	.	8a/J	.	8dd\J	.	16bn\LL	.
.	.	.	.	.	.	.	.	16cc\JJ	-o
!	!	!	!	!	!	!	!	!LO:LB:g=original	!
=20	=20	=20	=20	=20	=20	=20	=20	=20	=20
!	!	!	!	!	!	!	!	!LO:SIC:s=bn	!
8G\L	.	8g\L	.	8bn/L	.	8dd\L	.	16b-\LL	Ple-
.	.	.	.	.	.	.	.	16a\J	.
8G\	.	8g\	.	8b/	.	8dd\	.	8g\J	.
8G\	.	8g\	.	8b/	.	8dd\	.	8g\L	-na
8F#X\J	.	8f#X\J	.	8a/J	.	8dd\J	.	8a\J	.
=21	=21	=21	=21	=21	=21	=21	=21	=21	=21
8G\L	.	8g\L	.	8bn/L	.	8dd\L	.	8bn\	no-
8G\	.	8g\	.	8b/	.	8dd\	.	4b\	-vo
8G#X\	.	8g#X\	.	8b/	.	8ee\	.	.	.
8G#\J	.	8g#\J	.	8b/J	.	8ee\J	.	16cc\LL	.
.	.	.	.	.	.	.	.	16dd\JJ	gi-
!	!	!	!	!LO:LB:g=original	!	!LO:LB:g=original	!	!	!
=22	=22	=22	=22	=22	=22	=22	=22	=22	=22
8A\L	.	8a\L	.	8cc\L	.	8ee\L	.	16cc\LL	-gne-
!	!	!	!	!	!	!	!	!LO:SIC:s=bn	!
.	.	.	.	.	.	.	.	16b-\J	.
8A\	.	8a\	.	8cc\	.	8ee\	.	8a\J	-ns
8A\	.	8a\	.	8cc\	.	8ee\	.	8a\L	.
!	!	!	!	!	!	!	!	!LO:SIC:s=bn	!
8G#X\J	.	8g#X\J	.	8bn\J	.	8ee\J	.	8b-\J	.
=23	=23	=23	=23	=23	=23	=23	=23	=23	=23
8A\L	.	8a\L	.	8cc\L	.	8ee\L	.	8cc\	ſi-
8A\	.	8a\	.	8cc\	.	8ee\	.	4cc\	-ne
8A\	.	8a\	.	8cc\	.	8ff\	.	.	.
8A\J	.	8a\J	.	8cc\J	.	8ff\J	.	16dd\LL	.
.	.	.	.	.	.	.	.	16ee\JJ	.
=24	=24	=24	=24	=24	=24	=24	=24	=24	=24
8Bn\L	.	8bn\L	.	8dd\L	.	8ff\L	.	16dd\LL	Poe-
.	.	.	.	.	.	.	.	16cc\JJ	.
8B\	.	8b\	.	8dd\	.	8ff\	.	4bn\	.
8B\	.	8b\	.	8dd\	.	8ff\	.	.	.
8B\J	.	8a\J	.	8dd\J	.	8ff\J	.	8cc\	-na
=25	=25	=25	=25	=25	=25	=25	=25	=25	=25
!LO:SIC:s=Bn	!	!	!	!	!	!	!	!	!
8B-\L	.	8g\L	.	8dd\L	.	8ff\L	.	16dd\LL	Poe-
.	.	.	.	.	.	.	.	16cc\	.
!LO:SIC:s=Bn	!	!	!	!	!	!	!	!LO:SIC:s=bn	!
8B-\	.	8g\	.	8dd\	.	8ff\	.	16b-\	.
.	.	.	.	.	.	.	.	16a\JJ	.
!LO:SIC:s=Bn	!	!	!	!	!	!	!	!	!
8B-\	.	8g\	.	8dd\	.	8ff\	.	8g/L	.
!LO:SIC:s=Bn	!	!	!	!	!	!	!	!	!
8B-\J	.	8g\J	.	8dd\J	.	8ff\J	.	8f/J	.
!	!	!	!	!	!	!	!	!LO:LB:g=original	!
=26	=26	=26	=26	=26	=26	=26	=26	=26	=26
!	!LO:DY:b:t=for.	!	!	!	!	!	!	!	!
8c\L	f	8g\L	.	8cc\	.	8ee\	.	16e/LL	.
.	.	.	.	.	.	.	.	16c/	.
8c\	.	8g\	.	8r	.	8r	.	16d/	.
.	.	.	.	.	.	.	.	16e/JJ	.
8A\	.	8a\	.	8cc\	.	8ff\	.	16f/LL	.
.	.	.	.	.	.	.	.	16g/	.
8F\J	.	8f\J	.	8r	.	8r	.	16a/	.
.	.	.	.	.	.	.	.	16bn/JJ	.
=27	=27	=27	=27	=27	=27	=27	=27	=27	=27
8E\L	.	8e\L	.	8cc\	.	8gg\	.	16cc\LL	.
.	.	.	.	.	.	.	.	16dd\	.
8C\	.	8c\	.	8r	.	8r	.	16ee\	.
.	.	.	.	.	.	.	.	16ff\JJ	.
8E\	.	8e\	.	8cc\L	.	8gg\L	.	16gg\LL	.
.	.	.	.	.	.	.	.	16ee\	.
8F\J	.	8f\J	.	8cc\J	.	8aa\J	.	16dd\	.
.	.	.	.	.	.	.	.	16cc\JJ	.
!LO:LB:g=original	!	!LO:LB:g=original	!	!	!	!	!	!	!
=28	=28	=28	=28	=28	=28	=28	=28	=28	=28
4G\	.	4g\	.	4bn\	.	4dd\|	.	16bn\LL	-na.
.	.	.	.	.	.	.	.	16a\JJ	.
.	.	.	.	.	.	.	.	8g\	.
4r	.	4r	.	4r	.	4r	.	4r	.
=29	=29	=29	=29	=29	=29	=29	=29	=29	=29
8r	.	8r	.	4.g/	.	4.g/	.	4.g\	ſi-
8e\L	.	8g\L	.	.	.	.	.	.	.
8d\	.	8f\	.	.	.	.	.	.	.
8c\J	.	8e\J	.	(<16cc/LL	.	(<16cc/LL	.	16cc\LL	-ne
.	.	.	.	16g/JJ)	.	16g/JJ)	.	16g\JJ	.
!	!	!	!	!LO:LB:g=original	!	!LO:LB:g=original	!	!	!
=30	=30	=30	=30	=30	=30	=30	=30	=30	=30
8r	.	8r	.	4.g/	.	4.g/	.	4.g\	Poe-
8Bn\L	.	8d\L	.	.	.	.	.	.	.
8A\	.	8c\	.	.	.	.	.	.	.
8G\J	.	8Bn\J	.	16gg\LL	.	(>16gg\LL	.	8dd\	-na
.	.	.	.	16dd\JJ	.	16dd\JJ)	.	.	.
=31	=31	=31	=31	=31	=31	=31	=31	=31	=31
8c\L	.	8c\L	.	8ee\L	.	8ee\L	.	(>16ee\LL	Poe-
.	.	.	.	.	.	.	.	16cc\JJ)	.
8F\J	.	8a\	.	8dd\J	.	8ff\J	.	(>16ff\LL	.
.	.	.	.	.	.	.	.	16dd\JJ)	.
.	.	.	.	8qqcc/	.	8qqee/	.	.	.
!LO:TX:a:t=P:problem=mixed beam	!	!	!	!	!	!	!	!	!
8G\L	.	8g\	.	4bn\	.	4dd\	.	4bnt\	.
8GG/J	.	8f\J	.	.	.	.	.	.	.
=32	=32	=32	=32	=32	=32	=32	=32	=32	=32
4C/	.	8e\L	.	8cc'/L	.	8cc/L|	.	4cc\	-na
.	.	8g\	.	8g'/	.	8g/|	.	.	.
4r	.	8e\	.	8e'/	.	8e/|	.	4r	.
.	.	8c\J	.	8c'/J	.	8c/J|	.	.	.
!	!	!	!	!	!	!	!	!LO:LB:g=original	!
=33	=33	=33	=33	=33	=33	=33	=33	=33	=33
!	!	!	!	!	!LO:DY:b:t=pia.	!	!	!	!
8r	.	4G/	.	4.G/	p	4.G/	.	4.g\	Foe-
8E\L	.	.	.	.	.	.	.	.	.
8D\	.	8F/L	.	.	.	.	.	.	.
8C\J	.	8E/J	.	16c/LL	.	16c/LL	.	16cc\LL	-tum
.	.	.	.	16G/JJ	.	16G/JJ	.	16g\JJ	.
=34	=34	=34	=34	=34	=34	=34	=34	=34	=34
!	!	!LO:TX:a:t=P:problem=mixed beam	!	!	!	!	!	!	!
8r	.	8D/L	.	4.G/	.	4.G/	.	4.g\	Pu-
8BBn/L	.	8d\	.	.	.	.	.	.	.
8AA/	.	8c\	.	.	.	.	.	.	.
8GG/J	.	8Bn/J	.	16gg\LL	.	(>16gg\LL	.	8dd\	-er-
.	.	.	.	16dd\JJ	.	16dd\JJ)	.	.	.
=35	=35	=35	=35	=35	=35	=35	=35	=35	=35
8C/L	.	8c/L	.	8ee\L	.	8ee\L	.	16ee\LL	-Pe-
.	.	.	.	.	.	.	.	16cc\JJ	.
8FF/J	.	8A/	.	8dd\J	.	8ff\J	.	16ff\LL	.
.	.	.	.	.	.	.	.	16dd\JJ	.
.	.	.	.	8qqcc/	.	8qqee/	.	.	.
8GG/L	.	8G/	.	4bn\	.	4dd\	.	8.bn\	-ri-
8GG/J	.	8F/J	.	.	.	.	.	.	.
.	.	.	.	.	.	.	.	16b\	-o
=36	=36	=36	=36	=36	=36	=36	=36	=36	=36
!	!	!LO:TX:a:t=P:problem=mixed beam	!	!LO:TX:a:t=P:problem=mixed beam	!	!	!	!	!
4CC/	.	8E/L	.	8cc\L	.	4cc\	.	4cc\	Foe-
.	.	8e\	.	8e/	.	.	.	.	.
.	.	.	.	.	.	16qqee/	.	.	.
4r	.	8f\	.	8f/	.	8dd\L	.	8dd\	.
.	.	8g\J	.	8g/J	.	(>16cc\L	.	16cc\LL	-tum
.	.	.	.	.	.	16bn\JJ)	.	16b-\JJ	.
!	!	!LO:LB:g=original	!	!	!	!	!	!	!
=37	=37	=37	=37	=37	=37	=37	=37	=37	=37
!LO:N:vis=0	!	!	!	!	!	!	!	!	!
1r	.	8c\L	.	8c/L	.	8cc\L	.	8cc\	Puer-
.	.	8e\	.	8e/	.	8g\J	.	8g\	-pe-
!	!	!	!	!	!	!LO:LB:g=original	!	!	!
.	.	8d\	.	8d/	.	(>16ff\LL	.	16ff\LL	-ri-
.	.	.	.	.	.	16dd\)	.	16dd\JJ	.
.	.	8g\J	.	8g/J	.	(>16cc\	.	16cc\LL	.
.	.	.	.	.	.	16bn\JJ)	.	16b-\JJ	-o
!	!	!	!	!LO:LB:g=original	!	!	!	!	!
=38	=38	=38	=38	=38	=38	=38	=38	=38	=38
.	.	8c\L	.	8c/L	.	16ee'\LL	.	8cc\L	.
.	.	.	.	.	.	16bn'\	.	.	.
.	.	8e\	.	8e/	.	16cc'\	.	8g\J	.
.	.	.	.	.	.	16g'\JJ	.	.	.
.	.	8d\	.	8d/	.	16ff'\LL	.	8ff\	Foe-
.	.	.	.	.	.	16dd'\	.	.	.
.	.	8g\J	.	8g/J	.	16cc'\	.	16ee\LL	-tum
.	.	.	.	.	.	16bn'\JJ	.	16dd\JJ	.
!LO:LB:g=original	!	!	!	!	!	!	!	!LO:LB:g=original	!
=39	=39	=39	=39	=39	=39	=39	=39	=39	=39
.	.	.	.	.	.	.	.	8qqff/	.
!	!LO:DY:b:t=for.	!	!LO:DY:b:t=for.	!	!	!	!LO:DY:b:t=for.	!	!
8C\L	f	8G/L	f	16ee'\LL	.	16gg'\LL	f	16ee\LL	Pu-
.	.	.	.	16dd'\	.	16ee'\	.	16dd\J	.
8D\	.	8G/	.	16cc'\	.	16dd'\	.	8cc\J	.
.	.	.	.	16a'\JJ	.	16cc'\JJ	.	.	.
8E\	.	8G/	.	16g'/LL	.	16bn'/LL	.	16bn\LL	-er-
.	.	.	.	16f'/	.	16a'/	.	16a\JJ	.
8F\J	.	8G/J	.	16e'/	.	16g'/	.	16g\LL	.
.	.	.	.	16d'/JJ	.	16f'/JJ	.	16f\JJ	-pe-
=40	=40	=40	=40	=40	=40	=40	=40	=40	=40
4G\	.	4G/	.	(<32e/LLL	.	(<32e/LLL	.	16e/LL	.
.	.	.	.	32d/JJ	.	32d/JJ)	.	.	.
.	.	.	.	8.c/J)	.	8.c/J	.	16d/J	.
.	.	.	.	.	.	.	.	8c/J	-ri-
!	!	!LO:SIC:s=Bn	!	!	!	!	!	!	!
!	!	!LO:TX:a:t=h.	!	!	!	!	!	!	!
4GG/	.	4d\	.	4bnt\	.	8g/L	.	4dT/	.
.	.	.	.	.	.	8G/J	.	.	.
=41	=41	=41	=41	=41	=41	=41	=41	=41	=41
!LO:TX:a:t=P:problem=mixed beam	!	!	!	!	!	!	!	!	!
!	!	!	!	!	!	!	!LO:DY:b:t=for.	!	!
!	!LO:DY:b:t=for.	!	!LO:DY:b:t=for.	!	!LO:DY:b:t=for.	!	!	!	!
8C/L	f	8e\L	f	4gg\	f	4gg\	f	4c/	-o
8c\	.	8e\	.	.	.	.	.	.	.
8Bn\	.	8d\	.	4gg\	.	4gg\	.	4r	.
8G\J	.	8Bn\J	.	.	.	.	.	.	.
=42	=42	=42	=42	=42	=42	=42	=42	=42	=42
!LO:TX:a:t=P:problem=mixed beam	!	!	!	!	!	!	!	!	!
!	!	!	!	!	!	!	!	!LO:N:vis=00	!
8c\L	.	8e\L	.	4.gg\	.	4.gg\T	.	0r	.
8C/	.	8e\	.	.	.	.	.	.	.
8D/	.	8f\	.	.	.	.	.	.	.
8E/J	.	8g\J	.	16ff\LL	.	16ff\LL	.	.	.
.	.	.	.	16ee\JJ	.	16ee\JJ	.	.	.
=43	=43	=43	=43	=43	=43	=43	=43	=43	=43
8r	.	8r	.	8.dd\L	.	(>8.dd\L	.	.	.
!LO:TX:a:t=P:problem=mixed beam	!	!LO:TX:a:t=P:problem=mixed beam	!	!	!	!	!	!	!
8F\L	.	8a\L	.	.	.	.	.	.	.
.	.	.	.	(>32ee\LL	.	32ee\LL	.	.	.
.	.	.	.	32ff\JJJ)	.	32ff\JJJ)	.	.	.
8G\	.	8g\	.	8ee\L	.	8ee\L	.	.	.
8GG/J	.	8Bn/J	.	8dd\J	.	8dd\J	.	.	.
!	!	!	!	!	!	!LO:LB:g=original	!	!	!
=44	=44	=44	=44	=44	=44	=44	=44	=44	=44
8C\L	.	8c\L	.	16ee\LL	.	16ee\LL	.	.	.
.	.	.	.	16bn\	.	16bn\	.	.	.
8E\	.	8e\	.	16cc\	.	16cc\	.	.	.
.	.	.	.	16g\JJ	.	16g\JJ	.	.	.
8D\	.	8d\	.	16ff\LL	.	16ff\LL	.	.	.
.	.	.	.	16dd\	.	16dd\	.	.	.
8G\J	.	8g\J	.	16cc\	.	16cc\	.	.	.
.	.	.	.	16bn\JJ	.	16bn\JJ	.	.	.
!	!	!	!	!LO:LB:g=original	!	!	!	!	!
=45	=45	=45	=45	=45	=45	=45	=45	=45	=45
8C\L	.	8c\L	.	16ee\LL	.	16ee\LL	.	.	.
.	.	.	.	16bn\	.	16bn\	.	.	.
8E\	.	8e\	.	16cc\	.	16cc\	.	.	.
.	.	.	.	16g\JJ	.	16g\JJ	.	.	.
8D\	.	8d\	.	16ff\LL	.	16ff\LL	.	.	.
.	.	.	.	16dd\	.	16dd\	.	.	.
8G\J	.	8g\J	.	16cc\	.	16cc\	.	.	.
.	.	.	.	16bn\JJ	.	16bn\JJ	.	.	.
!	!	!LO:LB:g=original	!	!	!	!	!	!	!
=46	=46	=46	=46	=46	=46	=46	=46	=46	=46
!	!	!	!	!	!	!	!	!LO:N:vis=0	!
8C/L	.	8c\L	.	16gg\LL	.	16gg\LL	.	1r	.
.	.	.	.	16ee\	.	16ee\	.	.	.
8D/	.	8f\	.	16dd\	.	16dd\	.	.	.
.	.	.	.	16cc\JJ	.	16cc\JJ	.	.	.
8E/	.	8g\	.	16bn\LL	.	16bn/LL	.	.	.
.	.	.	.	16a\	.	16a/	.	.	.
8F/J	.	8a\J	.	16g\	.	16g/	.	.	.
.	.	.	.	16f\JJ	.	16f/JJ	.	.	.
=47	=47	=47	=47	=47	=47	=47	=47	=47	=47
4G\	.	4G/	.	(<16e/LL	.	16e/LL	.	.	.
.	.	.	.	16d/J)	.	16d/J	.	.	.
.	.	.	.	8c/J	.	8c/J	.	.	.
4GG/	.	4f\	.	4bn\	.	4ddT\	.	.	.
=48	=48	=48	=48	=48	=48	=48	=48	=48	=48
!LO:TX:a:t=P:problem=mixed beam	!	!	!	!	!	!	!	!	!
8C/L	.	8e\L	.	[>4cc\	.	2cc\	.	2r	.
8c\J	.	8e\J	.	.	.	.	.	.	.
16c\LL	.	4e\	.	16cc\LL]	.	.	.	.	.
16B-X\	.	.	.	16b-X\	.	.	.	.	.
16A\	.	.	.	16a\	.	.	.	.	.
16G\JJ	.	.	.	16g\JJ	.	.	.	.	.
!LO:LB:g=original	!	!	!	!	!	!	!	!	!
=49	=49	=49	=49	=49	=49	=49	=49	=49	=49
!	!	!	!	!	!	!	!LO:DY:b:t=piano	!	!
!	!	!	!LO:DY:b:t=p&colon;	!	!	!	!	!	!
!	!LO:DY:b:t=p&colon;	!	!	!	!	!	!	!	!
8F\L	p	8f\L	p	8a/L	.	4ccc\	p	4cc\	E-
!	!	!	!	!	!LO:DY:b:t=pia.	!	!	!	!
8A\	.	8a\	.	8cc/	p	.	.	.	.
8F\	.	8e\	.	8g/	.	4ccc\	.	4cc\	-ja
8C\J	.	8c\J	.	8e/J	.	.	.	.	.
=50	=50	=50	=50	=50	=50	=50	=50	=50	=50
*	*	*	*	*^	*	*	*	*	*
8r	.	8r	.	8a/	8f\	.	4.ccc\T	.	4.cc\	Vir-
8F\L	.	8f\L	.	8a/L	8ryy	.	.	.	.	.
8G\	.	8g\	.	8b-/	4ryy	.	.	.	.	.
8A\J	.	8a\J	.	8cc/J	.	.	(>16bb-X\LL	.	16b-\LL	-go
.	.	.	.	.	.	.	16aa\JJ)	.	16a\JJ	.
*	*	*	*	*v	*v	*	*	*	*	*
!	!	!	!	!	!	!LO:LB:g=original	!	!	!
=51	=51	=51	=51	=51	=51	=51	=51	=51	=51
8r	.	8r	.	8r	.	8.gg\L	.	8.g\L	pe-
!LO:TX:a:t=P:problem=mixed beam	!	!	!	!LO:TX:a:t=P:problem=mixed beam	!	!	!	!	!
8B-\L	.	8c\L	.	8dd\L	.	.	.	.	.
.	.	.	.	.	.	(>32aa\LL	.	32a\LL	-ra-
.	.	.	.	.	.	32bb-\JJJ)	.	32b-\JJJ	.
8c\	.	8c\	.	8cc\	.	8aa\L	.	8a\L	.
8C/J	.	8c\J	.	8e/J	.	8gg\J	.	8g\J	.
!	!	!	!	!LO:LB:g=original	!	!	!	!LO:LB:g=original	!
=52	=52	=52	=52	=52	=52	=52	=52	=52	=52
8r	.	8r	.	8r	.	8.ffT\L	.	8.f/L	-me-
8F\L	.	8f\L	.	8a/L	.	.	.	.	.
.	.	.	.	.	.	32ee\LL	.	32e/LL	.
.	.	.	.	.	.	32ff\JJJ	.	32f/JJJ	.
8A\	.	8a\	.	8cc/	.	4cc\	.	4c/	-na
!	!	!LO:TX:a:t=f	!	!	!	!	!	!	!
8G\J	.	8f\J	.	8b-X/J	.	.	.	.	.
=53	=53	=53	=53	=53	=53	=53	=53	=53	=53
8r	.	8r	.	8a/L	.	4ccc\	.	4cc\	Cas-
8F\L	.	8f\L	.	8a/	.	.	.	.	.
8E\	.	8e\	.	8g/	.	4ccc\	.	4cc\	-to
8C\J	.	8d\J	.	8e/J	.	.	.	.	.
=54	=54	=54	=54	=54	=54	=54	=54	=54	=54
8r	.	8r	.	8r	.	4.cccT\	.	4.cc\	na-
8F\L	.	8f\L	.	8a\L	.	.	.	.	.
8G\	.	8g\	.	8b-\	.	.	.	.	.
8A\J	.	8a\J	.	8cc\J	.	(>16bb-\LL	.	16b-\LL	-tum
.	.	.	.	.	.	16aa\JJ)	.	16a\JJ	.
!	!	!LO:LB:g=original	!	!	!	!	!	!	!
=55	=55	=55	=55	=55	=55	=55	=55	=55	=55
8r	.	8r	.	8r	.	8.gg\L	.	(>8.g\L	mens
!LO:TX:a:t=P:problem=mixed beam	!	!LO:TX:a:t=P:problem=mixed beam	!	!	!	!	!	!	!
8B-\L	.	8b-\L	.	8dd\L	.	.	.	.	.
.	.	.	.	.	.	(>32aa\LL	.	32a\LL	.
.	.	.	.	.	.	32bb-\JJJ)	.	32b-\JJJ)	.
8c\	.	8cc\	.	8cc\	.	8aa\L	.	8a\L	.
8C/J	.	8c/J	.	8e\J	.	8gg\J	.	8g\J	ſe-
=56	=56	=56	=56	=56	=56	=56	=56	=56	=56
8r	.	8r	.	8r	.	8.ff\L	.	8.f/L	-re-
8F\L	.	8f\L	.	8a\L	.	.	.	.	.
.	.	.	.	.	.	(>32ee\LL	.	32e/LL	.
.	.	.	.	.	.	32ff\JJJ)	.	32f/JJJ	.
8A\	.	8a\	.	8cc\	.	8cc\	.	8c/	-na
8G\J	.	8g\J	.	8b-\J	.	8r	.	8r	.
=57	=57	=57	=57	=57	=57	=57	=57	=57	=57
8r	.	8f\L	.	8a\L	.	8.ff\L	.	4f/	E-
8F\L	.	8c\	.	8a\	.	.	.	.	.
.	.	.	.	.	.	32ee\LL	.	.	.
.	.	.	.	.	.	32ff\JJJ	.	.	.
8E\	.	8c\	.	8cc\	.	8gg\L	.	8g/	-ja
8F\J	.	8c\J	.	8ff\J	.	8aa\J	.	8a/	.
!LO:LB:g=original	!	!	!	!	!	!LO:LB:g=original	!	!LO:LB:g=original	!
=58	=58	=58	=58	=58	=58	=58	=58	=58	=58
8r	.	8r	.	8ff\L	.	8aa\L	.	8a\	vir-
!LO:TX:a:t=P:problem=mixed beam	!	!	!	!	!	!	!	!	!
8C/L	.	8c\L	.	8ee\J	.	8gg\J	.	8g\	-go
8c\	.	8c\	.	4r	.	4r	.	4r	.
8C/J	.	8c\J	.	.	.	.	.	.	.
=59	=59	=59	=59	=59	=59	=59	=59	=59	=59
8r	.	8r	.	8.eet\L	.	8.gg\L	.	4g\	pe-
8E\L	.	8c\L	.	.	.	.	.	.	.
.	.	.	.	32dd\LL	.	32ff\LL	.	.	.
.	.	.	.	32ee\JJJ	.	32gg\JJJ	.	.	.
8D\	.	8c\	.	8ff\L	.	8aa\L	.	8a\	.
8C\J	.	8c\J	.	8gg\J	.	8bb-\J	.	8b-\	-ra-
!	!	!	!	!LO:LB:g=original	!	!	!	!	!
=60	=60	=60	=60	=60	=60	=60	=60	=60	=60
8r	.	8r	.	8gg\L	.	8bb-\L	.	8b-\	-me-
!LO:TX:a:t=P:problem=mixed beam	!	!LO:TX:a:t=P:problem=mixed beam	!	!	!	!	!	!	!
8FF/L	.	8c\L	.	8ff\J	.	8aa\J	.	8a\	-na
8F\	.	8f\	.	4r	.	4r	.	4r	.
8FF/J	.	8F/J	.	.	.	.	.	.	.
=61	=61	=61	=61	=61	=61	=61	=61	=61	=61
8r	.	8r	.	(>8.aa\L	.	8.ccc\L	.	4cc\	.
8F\L	.	8f\L	.	.	.	.	.	.	.
.	.	.	.	32gg\LL	.	32bb-\LL	.	.	.
.	.	.	.	32aa\JJJ)	.	32ccc\JJJ	.	.	.
8F\	.	8f\	.	8bb-\L	.	8ddd\L	.	8dd\	Cas-
8F\J	.	8f\J	.	8aa\J	.	8ccc\J	.	8ee-X\	-to
=62	=62	=62	=62	=62	=62	=62	=62	=62	=62
8B-\L	.	8f\L	.	8bb-\	.	8ddd\	.	16dd\LL	na-
.	.	.	.	.	.	.	.	16cc\JJ	.
8B-\	.	8f\	.	4dd\	.	4ff\	.	4b-\	-tum
8B-\	.	8f\	.	.	.	.	.	.	.
8A\J	.	8f\J	.	8cc\	.	8ff\	.	8cc\	.
=63	=63	=63	=63	=63	=63	=63	=63	=63	=63
8B-\L	.	8f\L	.	8dd\L	.	2ff\	.	8dd\	mens
8B-\	.	8f\	.	8dd\	.	.	.	4ff\	.
8B-\	.	8f\	.	8dd\	.	.	.	.	.
8B-\J	.	8f\J	.	8dd\J	.	.	.	16een\LL	ſe-
.	.	.	.	.	.	.	.	16dd\JJ	-re-
!	!	!LO:LB:g=original	!	!	!	!	!	!LO:LB:g=original	!
=64	=64	=64	=64	=64	=64	=64	=64	=64	=64
8A\L	.	8f\L	.	4cc\	.	8ff\	.	16cc\LL	-na
.	.	.	.	.	.	.	.	16b-\JJ	.
8A\	.	8f\	.	.	.	4.ff\	.	4a\	.
8A\	.	8f\	.	8cc\	.	.	.	.	.
8G\J	.	8f\J	.	8b-\	.	.	.	8b-\	mens
!	!	!	!	!LO:LB:g=original	!	!	!	!	!
=65	=65	=65	=65	=65	=65	=65	=65	=65	=65
8A\L	.	8a\L	.	8cc\L	.	2ff\	.	8cc\	ſe-
8A\	.	8a\	.	8cc\	.	.	.	4ff\	.
8A\	.	8a\	.	8cc\	.	.	.	.	.
8A\J	.	8a\J	.	8cc\J	.	.	.	16ee\LL	.
.	.	.	.	.	.	.	.	16ff\JJ	-re-
!	!	!	!	!	!	!LO:LB:g=original	!	!	!
=66	=66	=66	=66	=66	=66	=66	=66	=66	=66
8G\L	.	8g\L	.	8b-\	.	8ff\	.	16b-\LL	.
.	.	.	.	.	.	.	.	16a\JJ	-na
8G\	.	8g\	.	4b-\	.	4ee\	.	4g\	.
8G\	.	8g\	.	.	.	.	.	.	.
!LO:TX:a:t=f	!	!	!	!	!	!	!	!	!
8F\J	.	8f\J	.	8a\	.	8ff\	.	8a\	mens
=67	=67	=67	=67	=67	=67	=67	=67	=67	=67
8E\L	.	8e\L	.	8b-/L	.	2gg\	.	8b-\	ſe-
8E\	.	8e\	.	8b-/	.	.	.	4dd\	.
8E\	.	8e\	.	8b-/	.	.	.	.	.
8E\J	.	8e\J	.	8b-/J	.	.	.	16cc\LL	.
.	.	.	.	.	.	.	.	16b-\JJ	.
!	!	!	!	!LO:LB:g=original	!	!	!	!	!
=68	=68	=68	=68	=68	=68	=68	=68	=68	=68
8F\L	.	8f\L	.	8a/	.	8cc\	.	16a\LL	-re-
.	.	.	.	.	.	.	.	16b-\	.
8G\	.	8g\	.	8r	.	8r	.	16cc\	-na
.	.	.	.	.	.	.	.	16b-\JJ	.
8A\	.	8a\	.	8r	.	8r	.	8cc\	.
8F\J	.	8f\J	.	8cc\	.	8aa\	.	8r	.
!LO:LB:g=original	!	!	!	!	!	!	!	!	!
=69	=69	=69	=69	=69	=69	=69	=69	=69	=69
!	!	!	!	!	!	!LO:N:vis=4	!	!	!
8E\L	.	8e\L	.	8gg\	.	8bb-\	.	16g\LL	mens
.	.	.	.	.	.	.	.	16a\	.
8F\	.	8f\	.	8r	.	8r	.	16b-\	.
.	.	.	.	.	.	.	.	16a\JJ	.
.	.	.	.	.	.	.	.	8qqcc/	.
8G\	.	8g\	.	4r	.	4r	.	8b-\L	.
8C\J	.	8c\J	.	.	.	.	.	16a\L	.
.	.	.	.	.	.	.	.	16g\JJ	ſe-
!	!	!	!	!	!	!	!	!LO:LB:g=original	!
=70	=70	=70	=70	=70	=70	=70	=70	=70	=70
8F\L	.	8f\L	.	8cc\	.	8a/	.	16a\LL	-re-
.	.	.	.	.	.	.	.	16b-\	.
8G\	.	8g\	.	8r	.	8r	.	16cc\	-na
.	.	.	.	.	.	.	.	16b-\JJ	.
8A\	.	8a\	.	8r	.	8r	.	8cc\	.
8F\J	.	8f\J	.	8cc\	.	8aa\	.	8r	.
=71	=71	=71	=71	=71	=71	=71	=71	=71	=71
!LO:TX:a:t=P:problem=mixed beam	!	!	!	!	!	!	!	!	!
8E\L	.	8e\L	.	8gg\	.	8bb-\	.	16g\LL	mens
.	.	.	.	.	.	.	.	16a\	.
8F\	.	8f\	.	8r	.	8r	.	16b-\	.
.	.	.	.	.	.	.	.	16a\JJ	.
8G\	.	8g\	.	4r	.	4r	.	16b-\LL	ſe-
.	.	.	.	.	.	.	.	16a\J	.
8C/J	.	8c\J	.	.	.	.	.	8g\J	.
=72	=72	=72	=72	=72	=72	=72	=72	=72	=72
8F\L	.	8c\L	.	8ff\L	.	8aa\L	.	16a\LL	-re-
.	.	.	.	.	.	.	.	16f\	.
8F\	.	8cc\	.	8ff\	.	8aa\	.	16g\	.
.	.	.	.	.	.	.	.	16a\JJ	.
8G\	.	8b-\	.	8ee\	.	8gg\	.	16b-\LL	.
.	.	.	.	.	.	.	.	16cc\	.
8G\J	.	8b-\J	.	8dd\J	.	8gg\J	.	16dd\	.
.	.	.	.	.	.	.	.	16ee\JJ	.
!	!	!LO:LB:g=original	!	!	!	!	!	!	!
=73	=73	=73	=73	=73	=73	=73	=73	=73	=73
8A\L	.	8a\L	.	8cc\L	.	8ff\L	.	16ff\LL	-na
.	.	.	.	.	.	.	.	16ee\	.
8A\	.	8a\	.	8cc\	.	8ff\	.	16ff\	.
.	.	.	.	.	.	.	.	16ee\JJ	.
8A\	.	8a\	.	8cc\	.	8ff\	.	8ff\	.
8A\J	.	8a\J	.	8cc\J	.	8ff\J	.	16r	.
.	.	.	.	.	.	.	.	16cc\	ſe-
=74	=74	=74	=74	=74	=74	=74	=74	=74	=74
8B-\L	.	8b-\L	.	8dd\L	.	8ff\L	.	16dd\LL	-re-
.	.	.	.	.	.	.	.	16cc\	.
8B-\	.	8b-\	.	8dd\	.	8ff\	.	16dd\	.
.	.	.	.	.	.	.	.	16cc\JJ	.
8B-\	.	8b-\	.	8dd\	.	8ff\	.	8dd\	-na
8B-\J	.	8b-\J	.	8dd\J	.	8ff\J	.	16r	.
!	!	!	!	!	!	!	!	!LO:TX:b:i:t=Vertat	!
.	.	.	.	.	.	.	.	16a\	menſ
!	!	!	!	!	!	!LO:LB:g=original	!	!LO:PB:g=original	!
=75	=75	=75	=75	=75	=75	=75	=75	=75	=75
!	!	!	!LO:DY:b:t=for.	!	!LO:DY:b:t=poco for.	!	!LO:DY:b:t=poco for.	!	!
8B-\L	.	8b-\	f	8gg\	f	8ff\	f	16b-\LL	ſe-
.	.	.	.	.	.	.	.	(>16a\	.
8B-\	.	8r	.	8r	.	8r	.	16dd\)	.
.	.	.	.	.	.	.	.	(>16cc\JJ	.
8Bn\	.	8dd\	.	8gg\	.	8ff\	.	16b-\LL	.
.	.	.	.	.	.	.	.	16a\)	.
8B\J	.	8r	.	8r	.	8r	.	16g\	.
.	.	.	.	.	.	.	.	16f\JJ	-re-
!	!	!	!	!LO:LB:g=original	!	!	!	!	!
=76	=76	=76	=76	=76	=76	=76	=76	=76	=76
4c\	.	8cc\	.	8gg\	.	8ee\	.	16e/LL	.
.	.	.	.	.	.	.	.	16d/JJ	-na
.	.	8r	.	8r	.	8r	.	8c/	.
4r	.	4r	.	4r	.	4r	.	4r	.
=77	=77	=77	=77	=77	=77	=77	=77	=77	=77
!	!	!	!	!	!LO:DY:b:t=piano	!	!LO:DY:b:t=piano	!	!
8r	.	8r	.	4.cc\	p	4.cc\	p	4.cc\	ſtrin-
!	!LO:DY:b:t=p&colon;	!	!	!	!	!	!	!	!
8A\L	p	8cc\L	.	.	.	.	.	.	.
8G\	.	8b-\	.	.	.	.	.	.	.
8F\J	.	8a\J	.	16ff\LL	.	16ff\LL	.	16ff\LL	-gat
.	.	.	.	16cc\JJ	.	16cc\JJ	.	16cc\JJ	.
=78	=78	=78	=78	=78	=78	=78	=78	=78	=78
*	*	*	*	*2\right	*	*	*	*	*
8r	.	8r	.	2cc\	.	4.cc\	.	4.dd\	de-
8E\L	.	8g\L	.	.	.	.	.	.	.
8D\	.	8f\	.	.	.	.	.	.	.
8C\J	.	8e\J	.	.	.	16ccc\LL	.	8g\	-ſi-
.	.	.	.	.	.	16gg\JJ	.	.	.
=79	=79	=79	=79	=79	=79	=79	=79	=79	=79
!LO:TX:a:t=P:problem=mixed beam	!	!	!	!	!	!	!	!	!
8F\L	.	8f\L	.	8cc\L	.	8aa\L	.	16a\LL	-de-
.	.	.	.	.	.	.	.	16f\	.
8BB-\	.	8d\	.	8b-\J	.	8gg\J	.	16b-\	.
.	.	.	.	.	.	.	.	16g\JJ	.
.	.	.	.	8qqa/	.	8qqff/	.	8qqa/	.
8C\	.	8c\	.	4g/	.	4ee\	.	8.g\	.
8CC/J	.	8c\J	.	.	.	.	.	.	.
.	.	.	.	.	.	.	.	16g\	-ri-
!LO:LB:g=original	!	!	!	!	!	!	!	!	!
=80	=80	=80	=80	=80	=80	=80	=80	=80	=80
!	!	!	!	!	!	!	!LO:DY:b:t=poco for.	!	!
4FF/	.	4c\	.	16f/LL	.	16f/LL	f	4f/	-o
!	!	!	!	!	!LO:DY:b:t=for.	!	!	!	!
.	.	.	.	16a/	f	16a/	.	.	.
.	.	.	.	16cc/	.	16cc/	.	.	.
.	.	.	.	16a/JJ	.	16a/JJ	.	.	.
4r	.	4r	.	16ff\LL	.	16ff\LL	.	4r	.
.	.	.	.	16cc\	.	16cc\	.	.	.
.	.	.	.	16aa\	.	16aa\	.	.	.
.	.	.	.	16a\JJ	.	16cc\JJ	.	.	.
!	!	!	!	!	!	!	!	!LO:LB:g=original	!
=81	=81	=81	=81	=81	=81	=81	=81	=81	=81
!	!	!	!	!	!LO:DY:b:t=pia	!	!LO:DY:b:t=pia.	!	!
8r	.	8r	.	2b-\	p	2dd\	p	4dd\	E-
!	!	!	!LO:DY:b:t=p&colon;	!	!	!	!	!	!
8F\L	.	8f\L	p	.	.	.	.	.	.
8F\	.	8f\	.	.	.	.	.	16dd\LL	-ja
.	.	.	.	.	.	.	.	32ee\L	.
.	.	.	.	.	.	.	.	32ff\JJJ	.
8F\J	.	8f\J	.	.	.	.	.	16ee\LL	.
.	.	.	.	.	.	.	.	16dd\JJ	.
!	!	!LO:LB:g=original	!	!	!	!	!	!	!
=82	=82	=82	=82	=82	=82	=82	=82	=82	=82
!	!	!	!	!	!	!	!LO:DY:b:t=for.	!	!
4F\	.	8f\	.	16f/LL	.	16f/LL	f	16cc\LL	Vir-
!	!	!	!	!	!LO:DY:b:t=for.	!	!	!	!
.	.	.	.	16a/	f	16a/	.	16b-\JJ	.
.	.	8r	.	16cc/	.	16cc/	.	8a\	-go
.	.	.	.	16a/JJ	.	16a/JJ	.	.	.
!	!	!	!	!	!	!LO:LB:g=original	!	!	!
4r	.	4r	.	16ff\LL	.	16ff\LL	.	4r	.
.	.	.	.	16cc\	.	16cc\	.	.	.
.	.	.	.	16aa\	.	16aa\	.	.	.
.	.	.	.	16a\JJ	.	16cc\JJ	.	.	.
=83	=83	=83	=83	=83	=83	=83	=83	=83	=83
*	*	*2\right	*	*	*	*	*	*	*
!	!	!	!	!	!LO:DY:b:t=pia	!	!LO:DY:b:t=pia.	!	!
8r	.	2e\	.	2g/	p	2b-\	p	8g\	per-
8C/L	.	.	.	.	.	.	.	4g\	-a-
8C/	.	.	.	.	.	.	.	.	.
8C/J	.	.	.	.	.	.	.	16a\LL	.
.	.	.	.	.	.	.	.	16b-\JJ	.
!	!	!	!	!LO:PB:g=original	!	!	!	!	!
=84	=84	=84	=84	=84	=84	=84	=84	=84	=84
!	!	!	!	!	!LO:DY:b:t=for.	!	!LO:DY:b:t=for.	!	!
4FF/	.	8f\	.	16f/LL	f	16f/LL	f	16a/LL	-me-
.	.	.	.	16a/	.	16a/	.	16g/JJ	-na
.	.	8r	.	16cc/	.	16cc/	.	8f/	.
.	.	.	.	16a/JJ	.	16a/JJ	.	.	.
4r	.	4r	.	16ff\LL	.	16ff\LL	.	4r	.
.	.	.	.	16cc\	.	16cc\	.	.	.
.	.	.	.	16aa\	.	16aa\	.	.	.
!	!	!	!	!	!	!LO:SIC:s=cc	!	!	!
.	.	.	.	16a\JJ	.	16dd\JJ	.	.	.
=85	=85	=85	=85	=85	=85	=85	=85	=85	=85
!	!	!LO:N:vis=2.	!	!	!	!	!	!	!
!	!	!	!	!	!LO:DY:b:t=pia	!	!LO:DY:b:t=pia.	!	!
8r	.	2f\	.	2b-/	p	2dd\	p	4dd\	Cas-
!	!LO:DY:b:t=p&colon;	!	!	!	!	!	!	!	!
8F\L	p	.	.	.	.	.	.	.	.
8F\	.	.	.	.	.	.	.	(>16dd\LL	.
.	.	.	.	.	.	.	.	32ee\L	.
.	.	.	.	.	.	.	.	32ff\JJJ)	.
8F\J	.	.	.	.	.	.	.	16ee\LL	-ſto
.	.	.	.	.	.	.	.	16dd\JJ	.
=86	=86	=86	=86	=86	=86	=86	=86	=86	=86
!	!	!LO:N:vis=2.	!	!	!	!	!	!	!
!	!	!	!	!	!LO:DY:b:t=for.	!	!	!	!
4F\	.	2f\	.	16f/LL	f	16f/LL	.	16cc\LL	na-
.	.	.	.	16a/	.	16a/	.	16b-\JJ	.
.	.	.	.	16cc/	.	16cc/	.	8a\	-tum
.	.	.	.	16a/JJ	.	16a/JJ	.	.	.
4r	.	.	.	16ff\LL	.	16ff\LL	.	4r	.
.	.	.	.	16cc\	.	16cc\	.	.	.
.	.	.	.	16aa\	.	16aa\	.	.	.
.	.	.	.	16a\JJ	.	16cc\JJ	.	.	.
!	!	!	!	!	!	!	!	!LO:LB:g=original	!
=87	=87	=87	=87	=87	=87	=87	=87	=87	=87
!	!	!	!	!	!LO:DY:b:t=pia	!	!LO:DY:b:t=pia.	!	!
8r	.	4f\	.	2g/	p	2b-\	p	8g\L	mens
8C/L	.	.	.	.	.	.	.	8dd\J	.
8C/	.	4e\	.	.	.	.	.	16cc\LL	ſe-
.	.	.	.	.	.	.	.	16b-\JJ	.
8C/J	.	.	.	.	.	.	.	16a\LL	.
.	.	.	.	.	.	.	.	16g\JJ	.
=88	=88	=88	=88	=88	=88	=88	=88	=88	=88
.	.	.	.	8qqg/	.	8qqb-/	.	.	.
4F\	.	4f\	.	2f/	.	2a\	.	4.a\	-re-
4BBn/	.	4Bn/	.	.	.	.	.	.	.
.	.	.	.	.	.	.	.	8a\	.
=89	=89	=89	=89	=89	=89	=89	=89	=89	=89
4C/	.	4c/	.	4e/	.	4g/	.	4g\	-na
4r	.	4r	.	4r	.	4r	.	4r	.
=90	=90	=90	=90	=90	=90	=90	=90	=90	=90
8r	.	8r	.	4.cc\	.	4.cc\	.	4.cc\	ſtrin-
8A\L	.	8cc\L	.	.	.	.	.	.	.
8G\	.	8b-\	.	.	.	.	.	.	.
8F\J	.	8a\J	.	16ff\LL	.	(>16ff\LL	.	16ff\LL	-gat
.	.	.	.	16cc\JJ	.	16cc\JJ)	.	16cc\JJ	.
!	!	!LO:LB:g=original	!	!	!	!LO:LB:g=original	!	!	!
=91	=91	=91	=91	=91	=91	=91	=91	=91	=91
!	!	!	!	!	!LO:DY:b:t=poco for.	!	!	!	!
8r	.	8r	.	2cc\	f	4.cc\	.	4.cc\	de-
8E\L	.	8g\L	.	.	.	.	.	.	.
8D\	.	8f\	.	.	.	.	.	.	.
!	!	!	!	!	!	!	!LO:DY:b:t=poco for.	!	!
8C\J	.	8e\J	.	.	.	16ccc\LL	f	8g\	-si-
.	.	.	.	.	.	16gg\JJ	.	.	.
!LO:LB:g=original	!	!	!	!LO:LB:g=original	!	!	!	!	!
=92	=92	=92	=92	=92	=92	=92	=92	=92	=92
8F\L	.	8f\L	.	8cc\L	.	8aa\L	.	16a/LL	-de-
.	.	.	.	.	.	.	.	16f/JJ	.
8BB-\J	.	8d\	.	(>16dd\L	.	16bb-\L	.	16b-/LL	.
.	.	.	.	16b-\JJ)	.	16gg\JJ	.	16g/JJ	.
.	.	.	.	.	.	8qqff/	.	.	.
8C/L	.	8c\	.	4g/	.	4ee\	.	8.g/	-ri-
8CC/J	.	8c\J	.	.	.	.	.	.	.
!	!	!	!	!	!	!	!	!LO:N:vis=8	!
.	.	.	.	.	.	.	.	16g/	.
=93	=93	=93	=93	=93	=93	=93	=93	=93	=93
!	!	!	!	!	!	!LO:TX:a:t=-:problem	!	!	!
4FF/	.	8c\L|	.	8a'/L	.	8ff\L	.	4f/	-o
!	!	!	!	!	!	!LO:TX:a:t=-:problem	!	!	!
.	.	8cc\|	.	8cc'/	.	8cc\	.	.	.
!	!	!	!	!	!	!LO:TX:a:t=-:problem	!	!	!
4r	.	8g\|	.	8a'/	.	8a\	.	4r	.
!	!	!	!	!	!	!LO:TX:a:t=-:problem	!	!	!
.	.	8e\J|	.	8f'/J	.	8f\J	.	.	.
!	!	!	!	!	!	!	!	!LO:LB:g=original	!
=94	=94	=94	=94	=94	=94	=94	=94	=94	=94
!	!	!	!	!	!	!	!LO:DY:b:t=pia	!	!
8r	.	4c\	.	4.c/	.	4.c/	p	4.cc\	ſtrin-
8A\L	.	.	.	.	.	.	.	.	.
8G\	.	8B-\L	.	.	.	.	.	.	.
8F\J	.	8A\J	.	16f/LL	.	16f/LL	.	16ff\LL	-gat
.	.	.	.	16c/JJ	.	16c/JJ	.	16cc\JJ	.
=95	=95	=95	=95	=95	=95	=95	=95	=95	=95
8r	.	8r	.	4.c/	.	4.c/	.	4.cc\	de-
8E\L	.	8G/L	.	.	.	.	.	.	.
8D\	.	8F/	.	.	.	.	.	.	.
8C\J	.	8E/J	.	32gg\LLL	.	32gg\LLL	.	8g\	-si-
.	.	.	.	(>32ff\	.	32ff\	.	.	.
.	.	.	.	32ee\	.	32ee\	.	.	.
.	.	.	.	32dd\JJJ)	.	32dd\JJJ	.	.	.
=96	=96	=96	=96	=96	=96	=96	=96	=96	=96
8F\L	.	8F/L	.	8cc\L	.	8cc\L	.	(>16a\LL	-de-
.	.	.	.	.	.	.	.	16f\	.
8BB-\J	.	8B-/	.	16b-\L	.	(>16dd\L	.	16b-\	-ri-
.	.	.	.	16a\JJ	.	16b-\JJ)	.	16a\JJ)	-o
.	.	.	.	.	.	8qqa/	.	.	.
8C/L	.	8c/	.	4g\	.	4g/	.	4g\	.
8CC/J	.	8c/J	.	.	.	.	.	.	.
=97	=97	=97	=97	=97	=97	=97	=97	=97	=97
!	!	!	!	!LO:TX:a:t=P:problem=mixed beam	!	!LO:TX:a:t=P:problem=mixed beam	!	!	!
!	!	!	!	!	!LO:DY:b:t=for.	!	!LO:DY:b:t=forte	!	!
8FF/L	.	8c/L	.	16f/LL	f	16a/LL	f	4.ff\	de-
.	.	.	.	16ff\	.	(>16aa\	.	.	.
8FF/	.	8c/	.	16ff\	.	16aa\	.	.	.
.	.	.	.	16ff\JJ	.	16aa\JJ)	.	.	.
8GG/	.	8B-/	.	(>16ff\LL	.	(>16aa\LL	.	.	.
.	.	.	.	16ee\)	.	16gg\)	.	.	.
8GG/J	.	8B-/J	.	(>16ee\	.	(>16gg\	.	16ee\LL	-si-
.	.	.	.	16dd\JJ)	.	16ff\JJ)	.	16dd\JJ	.
=98	=98	=98	=98	=98	=98	=98	=98	=98	=98
4AA/	.	8c/L	.	(>16dd\LL	.	(>16ff\LL	.	16cc\LL	-de-
.	.	.	.	16cc\)	.	16ee\)	.	16a\JJ	-ri-
.	.	8c/	.	(>16cc\	.	(>16ee\	.	8f/	-o
.	.	.	.	16b-\JJ)	.	16dd\JJ)	.	.	.
8BB-/L	.	8d/	.	(<16b-/LL	.	(>16dd\LL	.	8r	.
.	.	.	.	16a/	.	16cc\)	.	.	.
8BB-/J	.	8d/J	.	16a/	.	(>16cc\	.	16f/	de-
.	.	.	.	16g/JJ)	.	16b-\JJ)	.	16f/	-si-
!	!	!LO:LB:g=original	!	!LO:LB:g=original	!	!LO:PB:g=original	!	!	!
=99	=99	=99	=99	=99	=99	=99	=99	=99	=99
2C;</	.	2c;\	.	4f;</	.	4a;/	.	4f;;/	-de-
.	.	.	.	4r	.	4r	.	8.g/	.
.	.	.	.	.	.	.	.	16g/	-ri-
=100	=100	=100	=100	=100	=100	=100	=100	=100	=100
!LO:TX:a:t=P:problem=mixed beam	!	!LO:TX:a:t=P:problem=mixed beam	!	!	!	!	!	!	!
!	!LO:DY:a:t=for.	!	!LO:DY:b:t=for.	!	!LO:DY:b:t=for.	!	!LO:DY:b:t=forte	!	!
8FF/L	f	8A/L	f	4ccc\	f	4ccc\	f	4f/	-o
8F\	.	8a\	.	.	.	.	.	.	.
8E\	.	8g\	.	4ccc\	.	4ccc\	.	4r	.
8C\J	.	8f\J	.	.	.	.	.	.	.
!	!	!	!	!	!	!	!	!LO:LB:g=original	!
=101	=101	=101	=101	=101	=101	=101	=101	=101	=101
!	!	!	!	!	!	!	!	!LO:N:vis=00	!
8r	.	8r	.	4.ccc\	.	4.ccc\	.	0r	.
8F\L	.	8a\L	.	.	.	.	.	.	.
8G\	.	8b-\	.	.	.	.	.	.	.
8A\J	.	8cc\J	.	16bb-\LL	.	16bb-\LL	.	.	.
.	.	.	.	16aa\JJ	.	16aa\JJ	.	.	.
=102	=102	=102	=102	=102	=102	=102	=102	=102	=102
8r	.	8r	.	8.gg\L	.	8.gg\L	.	.	.
!LO:TX:a:t=P:problem=mixed beam	!	!	!	!	!	!	!	!	!
8B-\L	.	8dd\L	.	.	.	.	.	.	.
.	.	.	.	32aa\LL	.	(>32aa\LL	.	.	.
.	.	.	.	32bb-\JJJ	.	32bb-\JJJ)	.	.	.
8c\	.	8cc\	.	8aa\L	.	8aa\L	.	.	.
8C/J	.	8b-\J	.	8gg\J	.	8gg\J	.	.	.
=103	=103	=103	=103	=103	=103	=103	=103	=103	=103
8r	.	8r	.	8.ff\L	.	8.ffT\L	.	.	.
8F\L	.	8a\L	.	.	.	.	.	.	.
.	.	.	.	32ee\LL	.	32ee\LL	.	.	.
.	.	.	.	32ff\JJJ	.	32ff\JJJ	.	.	.
8G\	.	8e\	.	4cc\	.	4cc\	.	.	.
8A\J	.	8f\J	.	.	.	.	.	.	.
!LO:LB:g=original	!	!	!	!	!	!	!	!	!
=104	=104	=104	=104	=104	=104	=104	=104	=104	=104
8r	.	8r	.	8.ff\L	.	8.ff\L	.	.	.
!LO:TX:a:t=P:problem=mixed beam	!	!	!	!	!	!	!	!	!
8B-\L	.	8dd\L	.	.	.	.	.	.	.
.	.	.	.	32aa\LL	.	32aa\LL	.	.	.
.	.	.	.	32bb-\JJJ	.	32bb-\JJJ	.	.	.
8c\	.	8cc\	.	8aa\L	.	8aa\L	.	.	.
8C/J	.	8e\J	.	8gg\J	.	8gg\J	.	.	.
=105	=105	=105	=105	=105	=105	=105	=105	=105	=105
!	!	!	!	!	!	!	!	!LO:N:vis=00	!
8F\L	.	8f\L	.	16aa\LL	.	16aa\LL	.	0r	.
.	.	.	.	16ee\	.	16ee\	.	.	.
8A\	.	8a\	.	16ff\	.	16ff\	.	.	.
.	.	.	.	16cc\JJ	.	16cc\JJ	.	.	.
8G\	.	8g\	.	16bb-\LL	.	16bb-\LL	.	.	.
.	.	.	.	16gg\	.	(>16gg\	.	.	.
8c\J	.	8b-\J	.	16ff\	.	16ff\)	.	.	.
.	.	.	.	16ee\JJ	.	16ee\JJ	.	.	.
!	!	!	!	!LO:LB:g=original	!	!	!	!	!
=106	=106	=106	=106	=106	=106	=106	=106	=106	=106
8F\L	.	8f\L	.	16aa\LL	.	16aa\LL	.	.	.
.	.	.	.	16ee\	.	16ee\	.	.	.
8A\	.	8a\	.	16ff\	.	16ff\	.	.	.
.	.	.	.	16cc\JJ	.	16cc\JJ	.	.	.
!	!	!	!	!	!	!LO:LB:g=original	!	!	!
8G\	.	8g\	.	16bb-\LL	.	16bb-\LL	.	.	.
.	.	.	.	16gg\	.	16gg\	.	.	.
8c\J	.	8cc\J	.	16ff\	.	16ff\	.	.	.
.	.	.	.	16ee\JJ	.	16ee\JJ	.	.	.
!	!	!LO:LB:g=original	!	!	!	!	!	!	!
=107	=107	=107	=107	=107	=107	=107	=107	=107	=107
!	!	!LO:TX:a:t=P:problem=mixed beam	!	!	!	!	!	!	!
8F\L	.	8f\L	.	16aa\LL	.	16aa\LL	.	.	.
.	.	.	.	16ee\	.	16ee\	.	.	.
8A\J	.	8A/J	.	16ff\	.	16ff\	.	.	.
.	.	.	.	16cc\JJ	.	16cc\JJ	.	.	.
4B-\	.	4B-/	.	16dd\LL	.	16dd\LL	.	.	.
.	.	.	.	16a\	.	16a\	.	.	.
.	.	.	.	16b-\	.	16b-\	.	.	.
.	.	.	.	16g\JJ	.	16g\JJ	.	.	.
=108	=108	=108	=108	=108	=108	=108	=108	=108	=108
8r	.	8r	.	8.f/L	.	8.f/L	.	.	.
8A\L	.	8c\L	.	.	.	.	.	.	.
.	.	.	.	16g/Jk	.	16g/Jk	.	.	.
8B-\	.	8d\	.	4gT/	.	4gT/	.	.	.
8c\J	.	8e\J	.	.	.	.	.	.	.
=109	=109	=109	=109	=109	=109	=109	=109	=109	=109
!	!	!LO:TX:a:t=P:problem=mixed beam	!	!	!	!	!	!	!
!	!	!	!	!	!	!	!	!LO:N:vis=0	!
8F\L	.	8f\L	.	16aa\LL	.	16aa\LL	.	1r	.
.	.	.	.	16ee\	.	16ee\	.	.	.
8A\J	.	8A/J	.	16ff\	.	16ff\	.	.	.
.	.	.	.	16cc\JJ	.	16cc\JJ	.	.	.
4B-\	.	4B-/	.	16dd\LL	.	16dd\LL	.	.	.
.	.	.	.	16a\	.	16a\	.	.	.
.	.	.	.	16b-\	.	16b-\	.	.	.
.	.	.	.	16g\JJ	.	16g\JJ	.	.	.
=110	=110	=110	=110	=110	=110	=110	=110	=110	=110
8r	.	8r	.	8.d/L	.	8.d/L	.	.	.
8BB-/L	.	8B-/	.	.	.	.	.	.	.
.	.	.	.	16g/Jk	.	16g/Jk	.	.	.
.	.	.	.	8qqf/	.	8qqf/	.	.	.
8C/	.	4G/	.	4e/	.	4e/	.	.	.
8CC/J	.	.	.	.	.	.	.	.	.
=111	=111	=111	=111	=111	=111	=111	=111	=111	=111
4FF/	.	4A/	.	8f/L	.	8f/L	.	2r	.
.	.	.	.	8c/J	.	8c/J	.	.	.
4r	.	4r	.	4f/	.	4f/	.	.	.
!LO:TX:b:t=Verto	!	!	!	!LO:LB:g=original	!	!	!	!	!
!LO:PB:g=original	!	!	!	!	!	!	!	!	!
=112||	=112||	=112||;;	=112||	=112||;;	=112||	=112||;;	=112||	=112||	=112||
*k[b-e-a-d-]	*	*k[b-e-a-d-]	*	*k[b-e-a-d-]	*	*k[b-e-a-d-]	*	*k[b-e-a-d-]	*
*f:	*	*f:	*	*f:	*	*f:	*	*f:	*
!	!	!	!	!	!	!	!LO:DY:b:t=piano	!	!
8r	.	8r	.	8r	.	4cc\	p	4cc\	Gau-
!	!	!	!	!	!LO:DY:b:t=pia.	!	!	!	!
!	!	!	!LO:DY:b:t=p&colon;	!	!	!	!	!	!
.	.	.	p	.	.	.	.	.	.
!	!LO:DY:b:t=p&colon;	!	!	!	!	!	!	!	!
8F\L	p	8f\L	.	8a-X/L	p	.	.	.	.
8En\	.	8en\	.	8g/	.	4cc\	.	4cc\	-de
8C\J	.	8c\J	.	8en/J	.	.	.	.	.
!	!	!	!	!	!	!LO:LB:g=original	!	!	!
=113	=113	=113	=113	=113	=113	=113	=113	=113	=113
8r	.	8r	.	8r	.	4.ccc\	.	4.cc\	quod
8F\L	.	8f\L	.	8a-\L	.	.	.	.	.
8G\	.	8f\	.	8b-\	.	.	.	.	.
8A-\J	.	8f\J	.	8cc\J	.	16bb-\LL	.	16b-\LL	ab
.	.	.	.	.	.	16aa-\JJ	.	16a-\JJ	.
=114	=114	=114	=114	=114	=114	=114	=114	=114	=114
8r	.	8r	.	8r	.	8.gg\L	.	8.g\L	o-
!LO:TX:a:t=P:problem=mixed beam	!	!	!	!	!	!	!	!	!
8B-\L	.	8f\L	.	8dd-\L	.	.	.	.	.
.	.	.	.	.	.	(>32aa-\LL	.	32a-\LL	.
.	.	.	.	.	.	32bb-\JJJ)	.	32b-\JJJ	.
8c\	.	8f\	.	8cc\	.	8aa-\L	.	8a-\	.
8C/J	.	8en\J	.	8b-\J	.	8gg\J	.	8g\	-ri-
=115	=115	=115	=115	=115	=115	=115	=115	=115	=115
8r	.	8r	.	8r	.	8.ff\L	.	8.f/L	-en-
8F\L	.	8f\L	.	8a-\L	.	.	.	.	.
.	.	.	.	.	.	(>32een\LL	.	32en/LL	.
.	.	.	.	.	.	32ff\JJJ)	.	32f/JJJ	.
8A-\	.	8a-\	.	8cc\	.	4cc\	.	4c/	-te
8G\J	.	8g\J	.	8b-\J	.	.	.	.	.
=116	=116	=116	=116	=116	=116	=116	=116	=116	=116
8r	.	8r	.	8r	.	4ccc\	.	4cc\	ma-
8F\L	.	8f\L	.	8a-/L	.	.	.	.	.
8En\	.	8dn\	.	8g/	.	4ccc\	.	4cc\	-gi
8C\J	.	8B-\J	.	8en/J	.	.	.	.	.
!	!	!	!	!	!	!	!	!LO:LB:g=original	!
=117	=117	=117	=117	=117	=117	=117	=117	=117	=117
8r	.	8r	.	8f/	.	4.ccc\	.	4.cc\	ſtel-
8F\L	.	8f\L	.	8a-\L	.	.	.	.	.
8G\	.	8f\	.	8b-\	.	.	.	.	.
8A-\J	.	8f\J	.	8cc\J	.	(>16bb-\LL	.	16b-\LL	-la
.	.	.	.	.	.	16aa-\JJ)	.	16a-\JJ	.
!LO:LB:g=original	!	!	!	!	!	!	!	!	!
=118	=118	=118	=118	=118	=118	=118	=118	=118	=118
8r	.	8r	.	8r	.	8.gg\L	.	8.g\L	prae-
!LO:TX:a:t=P:problem=mixed beam	!	!	!	!	!	!	!	!	!
8B-\L	.	8f\L	.	8dd-\L	.	.	.	.	.
.	.	.	.	.	.	32aa-\LL	.	32a-\LL	.
.	.	.	.	.	.	32bb-\JJJ	.	32b-\JJJ	.
8c\	.	8f\	.	8cc\	.	8aa-\L	.	8a-\	.
8C/J	.	8en\J	.	8b-\J	.	8gg\J	.	8g\	-ca-
!	!	!LO:LB:g=original	!	!	!	!	!	!	!
=119	=119	=119	=119	=119	=119	=119	=119	=119	=119
8r	.	8r	.	8r	.	16aa-\LL	.	16a-\LL	-den-
.	.	.	.	.	.	16gg\J	.	16g\JJ	.
8F\L	.	8f\L	.	8a-/L	.	8ff\J	.	8f/	-te
8E-X\	.	8e-X\	.	8g/	.	4r	.	4r	.
8D-X\J	.	8d-X\J	.	8f/J	.	.	.	.	.
!	!	!	!	!LO:LB:g=original	!	!	!	!	!
=120	=120	=120	=120	=120	=120	=120	=120	=120	=120
!	!	!	!	!LO:TX:a:t=P:problem=mixed beam	!	!	!	!	!
8r	.	8r	.	8f/L	.	8.aa-\L	.	4a-\	prae-
8C/L	.	8c/L	.	16ee-\L	.	.	.	.	.
.	.	.	.	16ff\JJ	.	32gg\LL	.	.	.
.	.	.	.	.	.	32aa-\JJJ	.	.	.
8BB-/	.	8B-/	.	8gg\L	.	8bb-\L	.	8b-\	-ca-
8AA-/J	.	8A-/J	.	8aa-\J	.	8ccc\J	.	8cc\	-den-
!	!	!	!	!	!	!LO:LB:g=original	!	!	!
=121	=121	=121	=121	=121	=121	=121	=121	=121	=121
8r	.	8r	.	8aa-\L	.	8ccc\L	.	8cc\	-te
8E-\L	.	8e-\L	.	8gg\J	.	8bb-\J	.	8b-\	.
8e-\	.	8e-\	.	4r	.	4r	.	8r	.
8E-\J	.	8e-\J	.	.	.	.	.	8b-\	prae-
=122	=122	=122	=122	=122	=122	=122	=122	=122	=122
8r	.	8r	.	8.gg\L	.	8.bb-\L	.	4b-\	-ca-
8G\L	.	8e-\L	.	.	.	.	.	.	.
.	.	.	.	(>32ff\LL	.	(>32aa-\LL	.	.	.
.	.	.	.	32gg\JJJ)	.	32bb-\JJJ)	.	.	.
8F\	.	8e-\	.	8aa-\L	.	8ccc\L	.	8cc\	.
8E-\J	.	8e-\J	.	8bb-\J	.	8ddd-\J	.	8dd-\	.
!	!	!	!	!	!	!	!	!LO:LB:g=original	!
=123	=123	=123	=123	=123	=123	=123	=123	=123	=123
8r	.	8r	.	8bb-\L	.	8ddd-'\L	.	8dd-\	-den-
!LO:TX:a:t=P:problem=mixed beam	!	!	!	!	!	!	!	!	!
8AA-/L	.	8e-\L	.	8aa-\J	.	8ccc'\J	.	8cc\	-te
8A-\	.	8e-\	.	4r	.	4r	.	4r	.
8AA-/J	.	8e-\J	.	.	.	.	.	.	.
!LO:LB:g=original	!	!	!	!	!	!	!	!	!
=124	=124	=124	=124	=124	=124	=124	=124	=124	=124
!	!	!	!	!	!LO:DY:b:t=piano	!	!	!	!
8r	.	8r	.	2aa-\	p	2aa-\	.	4a-\	no-
8C\L	.	8e-\L	.	.	.	.	.	.	.
8A-\	.	8e-\	.	.	.	.	.	4a-\	-na
8C\J	.	8f\J	.	.	.	.	.	.	.
=125	=125	=125	=125	=125	=125	=125	=125	=125	=125
8r	.	8r	.	2aa-\	.	2bb-\	.	4b-\	no-
8D-\L	.	8f\L	.	.	.	.	.	.	.
8A-\	.	8f\	.	.	.	.	.	4b-\	-na
8D-\J	.	8f\J	.	.	.	.	.	.	.
=126	=126	=126	=126	=126	=126	=126	=126	=126	=126
!	!	!	!	!	!LO:DY:b	!	!	!	!
8r	.	8r	.	2aa-\	p	2ccc\	.	4cc\	fe-
8E-\L	.	8e-\L	.	.	.	.	.	.	.
8A-\	.	8e-\	.	.	.	.	.	4cc\	-runt
8E-\J	.	8e-\J	.	.	.	.	.	.	.
!	!	!LO:LB:g=original	!	!	!	!	!	!	!
=127	=127	=127	=127	=127	=127	=127	=127	=127	=127
*	*	*	*	*	*	*	*	*2\right	*
!	!	!LO:N:vis=2.	!	!	!	!	!	!	!
!	!	!	!LO:DY:b:t=for.	!	!LO:DY:b:t=for.	!	!LO:DY:b:t=for.	!	!
8r	.	2f\	f	2aa-\	f	2dddn\	f	2ddn\	Fi-
!	!LO:DY:b:t=for.	!	!	!	!	!	!	!	!
8F\L	f	.	.	.	.	.	.	.	.
8A-\	.	.	.	.	.	.	.	.	.
8F\J	.	.	.	.	.	.	.	.	.
=128	=128	=128	=128	=128	=128	=128	=128	=128	=128
!	!	!LO:N:vis=2.	!	!	!	!	!	!	!
!	!	!	!LO:DY:b:t=p&colon;	!	!LO:DY:b:t=pia.	!	!LO:DY:b:t=pia	!	!
8r	.	2g\	p	2bb-\	p	2ddd-X\	p	4.ee-X\	.
!	!LO:DY:b:t=p&colon;	!	!	!	!	!	!	!	!
8G\L	p	.	.	.	.	.	.	.	.
8B-\	.	.	.	.	.	.	.	.	.
8E-\J	.	.	.	.	.	.	.	16dd-\LL	.
.	.	.	.	.	.	.	.	16cc\JJ	.
=129	=129	=129	=129	=129	=129	=129	=129	=129	=129
8r	.	4a-\	.	4ee-\	.	4ccc\	.	4cc\	.
8A-\L	.	.	.	.	.	.	.	.	.
8F\	.	8f\L	.	8ff\L	.	8ddd-\L	.	8dd-\	.
8D-\J	.	8d-\J	.	8ff\J	.	8bb-\J	.	8b-\	.
!	!	!	!	!LO:LB:g=original	!	!	!	!	!
=130	=130	=130	=130	=130	=130	=130	=130	=130	=130
8E-\L	.	8e-\L	.	4cc\	.	4aa-\	.	4a-\	.
8E-\	.	8e-\	.	.	.	.	.	.	.
8E-\	.	8e-\	.	4b-T\	.	4ggt\	.	4b-\	-li-
8E-\J	.	8e-\J	.	.	.	.	.	.	.
!LO:LB:g=original	!	!	!	!	!	!LO:LB:g=original	!	!LO:LB:g=original	!
=131	=131	=131	=131	=131	=131	=131	=131	=131	=131
*	*	*^	*	*	*	*	*	*	*
!	!	!	!	!	!LO:TX:a:t=P:problem=mixed beam	!	!LO:TX:a:t=P:problem=mixed beam	!	!	!
!	!LO:DY:b:t=for	!	!	!	!	!LO:DY:b:t=for.	!	!LO:DY:b:t=for.	!	!
4AA-/	f	4e-/	4c\	.	16a-/LL	f	16a-/LL	f	4a-\	-o
.	.	.	.	.	16aa-\	.	16aa-\	.	.	.
.	.	.	.	.	16gg\	.	16gg\	.	.	.
.	.	.	.	.	16aa-\JJ	.	16aa-\JJ	.	.	.
4r	.	4r	4ryy	.	16gg\LL	.	16gg\LL	.	4r	.
.	.	.	.	.	16aa-\	.	16aa-\	.	.	.
.	.	.	.	.	16gg\	.	16gg\	.	.	.
.	.	.	.	.	16aa-\JJ	.	16aa-\JJ	.	.	.
*	*	*v	*v	*	*	*	*	*	*	*
=132	=132	=132	=132	=132	=132	=132	=132	=132	=132
!	!	!	!	!	!LO:DY:b:t=pia	!	!LO:DY:b:t=pia.	!	!
8r	.	8r	.	2ff\	p	2ff\	p	4f/	Fac
!	!LO:DY:b:t=p&colon;	!	!LO:DY:b:t=p&colon;	!	!	!	!	!	!
8A-\L	p	8a-\L	p	.	.	.	.	.	.
8A-\	.	8a-\	.	.	.	.	.	16f/LL	do-
.	.	.	.	.	.	.	.	32g/L	.
.	.	.	.	.	.	.	.	32a-/JJJ	.
8A-\J	.	8a-\J	.	.	.	.	.	16g/LL	.
.	.	.	.	.	.	.	.	16f/JJ	.
=133	=133	=133	=133	=133	=133	=133	=133	=133	=133
!	!LO:DY:b:t=for	!	!	!	!LO:DY:b:t=for.	!	!LO:DY:b:t=poco for.	!	!
4A-\	f	8a-\	.	16cc\LL	f	16ee-\LL	f	8f/	-ne-
.	.	.	.	16aa-\	.	16aa-\	.	.	.
.	.	8r	.	16gg\	.	16gg\	.	8e-/	-mur
.	.	.	.	16aa-\JJ	.	16aa-\JJ	.	.	.
4r	.	4r	.	16gg\LL	.	16gg\LL	.	8r	.
.	.	.	.	16aa-\	.	16aa-\	.	.	.
.	.	.	.	16gg\	.	16gg\	.	16r	.
.	.	.	.	16aa-\JJ	.	16aa-\JJ	.	16a-\	Pi-
=134	=134	=134	=134	=134	=134	=134	=134	=134	=134
.	.	.	.	.	.	.	.	16qqb-/LL	.
.	.	.	.	.	.	.	.	16qqcc/JJ	.
!	!	!	!	!	!LO:DY:b:t=pia.	!	!LO:DY:b:t=pia	!	!
8r	.	8r	.	2b-\	p	2dd-\	p	4.dd-\	-e-
!	!LO:DY:b:t=p&colon;	!	!	!	!	!	!	!	!
8E-\L	p	8g\L	.	.	.	.	.	.	.
8E-\	.	8g\	.	.	.	.	.	.	.
8E-\J	.	8g\J	.	.	.	.	.	16cc\LL	.
.	.	.	.	.	.	.	.	16b-\JJ	.
!	!	!	!	!LO:LB:g=original	!	!	!	!	!
=135	=135	=135	=135	=135	=135	=135	=135	=135	=135
!	!LO:DY:b:t=for	!	!	!	!	!	!	!	!
4AA-/	f	8a-\	.	16a-\LL	.	16cc\LL	.	16cc\LL	-ta-
!	!	!	!	!	!LO:DY:b:t=for.	!	!	!	!
.	.	.	.	16aa-\	f	16aa-\	.	16b-\JJ	.
!	!	!	!	!	!	!	!	!LO:N:vis=4	!
.	.	8r	.	16gg\	.	16gg\	.	8a-\	-te
.	.	.	.	16aa-\JJ	.	16aa-\JJ	.	.	.
4r	.	4r	.	16gg\LL	.	16gg\LL	.	4r	.
.	.	.	.	16aa-\	.	16aa-\	.	.	.
.	.	.	.	16gg\	.	16gg\	.	.	.
.	.	.	.	16aa-\JJ	.	16aa-\JJ	.	.	.
!	!	!LO:LB:g=original	!	!	!	!	!	!	!
=136	=136	=136	=136	=136	=136	=136	=136	=136	=136
!	!	!	!	!	!LO:DY:b:t=pia.	!	!LO:DY:b:t=pia.	!	!
8r	.	8r	.	2dd-\	p	2ff\	p	4f/	Fi-
!	!LO:DY:b:t=p&colon;	!	!	!	!	!	!	!	!
8A-\L	p	8a-\L	.	.	.	.	.	.	.
8A-\	.	8a-\	.	.	.	.	.	(<16f/LL	.
.	.	.	.	.	.	.	.	32g/L	.
.	.	.	.	.	.	.	.	32a-/JJJ)	.
8A-\J	.	8a-\J	.	.	.	.	.	16g/LL	.
.	.	.	.	.	.	.	.	16f/JJ	.
=137	=137	=137	=137	=137	=137	=137	=137	=137	=137
!	!	!	!	!	!	!	!LO:DY:b:t=for.	!	!
!	!LO:DY:b:t=for	!	!	!	!	!	!	!	!
4A-\	f	8a-\	.	16cc\LL	.	16ee-\LL	f	8f/	-de
!	!	!	!	!	!LO:DY:b:t=for.	!	!	!	!
.	.	.	.	16aa-\	f	16aa-\	.	.	.
.	.	8r	.	16gg\	.	16gg\	.	8e-/	ſpe
.	.	.	.	16aa-\JJ	.	16aa-\JJ	.	.	.
4r	.	4r	.	16gg\LL	.	16gg\LL	.	8r	.
.	.	.	.	16aa-\	.	16aa-\	.	.	.
.	.	.	.	16gg\	.	16gg\	.	16r	.
.	.	.	.	16aa-\JJ	.	16aa-\JJ	.	16a-\	cu(m)
!	!	!	!	!	!	!LO:LB:g=original	!	!LO:LB:g=original	!
=138	=138	=138	=138	=138	=138	=138	=138	=138	=138
.	.	.	.	.	.	.	.	16qqb-/LL	.
.	.	.	.	.	.	.	.	16qqcc/JJ	.
!	!	!	!	!	!LO:DY:b:t=pia.	!	!LO:DY:b:t=piano	!	!
8r	.	8r	.	2b-\	p	2dd-\	p	4.dd-\	Cha-
!	!LO:DY:b:t=p&colon;	!	!	!	!	!	!	!	!
8E-\L	p	8G/L	.	.	.	.	.	.	.
8E-\	.	8G/	.	.	.	.	.	.	.
8E-\J	.	8G/J	.	.	.	.	.	16cc\LL	-ri-
.	.	.	.	.	.	.	.	16b-\JJ	.
!LO:LB:g=original	!	!	!	!	!	!	!	!	!
=139	=139	=139	=139	=139	=139	=139	=139	=139	=139
.	.	.	.	.	.	8qqdd-/	.	.	.
!	!	!	!	!	!	!	!	!LO:N:vis=2.	!
4A-\	.	4A-/	.	2a-/	.	2cc\	.	2cc\	-ta-
4Dn\	.	4dn\	.	.	.	.	.	.	.
=140	=140	=140	=140	=140	=140	=140	=140	=140	=140
8r	.	8r	.	4a-/	.	2b-\	.	4b-\	-te
8E-\L	.	8e-\L	.	.	.	.	.	.	.
8E-\	.	8e-\	.	(<4g/	.	.	.	4r	.
8E-\J	.	8e-\J	.	.	.	.	.	.	.
=141	=141	=141	=141	=141	=141	=141	=141	=141	=141
.	.	.	.	.	.	.	.	16qqb-/LL	.
.	.	.	.	.	.	.	.	16qqcc/JJ	.
8r	.	8r	.	2b-/)	.	2gg\	.	4.dd-\	Pu-
8En\L	.	8en\L	.	.	.	.	.	.	.
8E\	.	8e\	.	.	.	.	.	.	.
8E\J	.	8e\J	.	.	.	.	.	16cc\LL	.
.	.	.	.	.	.	.	.	16b-\JJ	.
=142	=142	=142	=142	=142	=142	=142	=142	=142	=142
8r	.	8r	.	8b-/L	.	4cc\	.	8b-\L	-do-
8F\L	.	8f\L	.	8a-/J	.	.	.	8a-\J	.
8F\	.	8f\	.	[>4cc\	.	4r	.	4cc\	.
8F\J	.	8f\J	.	.	.	.	.	.	.
=143	=143	=143	=143	=143	=143	=143	=143	=143	=143
8r	.	8r	.	8cc\L]	.	2aan\	.	8.cc\L	.
8F#X\L	.	8f#X\L	.	16ddn\L	.	.	.	.	.
.	.	.	.	16ee-\JJ	.	.	.	32ddn\LL	.
.	.	.	.	.	.	.	.	32ee-\JJJ	.
8F#\	.	8f#\	.	8dd\L	.	.	.	8dd\	.
8F#\J	.	8f#\J	.	8cc\J	.	.	.	8cc\	-ris-
!	!	!LO:LB:g=original	!	!	!	!	!	!	!
=144	=144	=144	=144	=144	=144	=144	=144	=144	=144
.	.	.	.	8qqcc/	.	.	.	.	.
8r	.	8r	.	2bn/	.	2ddn\	.	8cc\L	-que
8G\L	.	8g\L	.	.	.	.	.	8bn\J	.
8G\	.	8g\	.	.	.	.	.	4r	.
8Fn\J	.	8g\J	.	.	.	.	.	.	.
!	!	!	!	!	!	!	!	!LO:LB:g=original	!
=145	=145	=145	=145	=145	=145	=145	=145	=145	=145
*2\right	*	*	*	*	*	*	*	*	*
!	!	!LO:N:vis=2.	!	!	!	!	!	!	!
2E-X\	.	2g\	.	8r	.	8r	.	2cc\	Pu-
.	.	.	.	(>16.cc\LL	.	16.ee-T\LL	.	.	.
.	.	.	.	32bn\JJk)	.	(>32ddn\JJk	.	.	.
.	.	.	.	8cc\L	.	8ee-\L)	.	.	.
.	.	.	.	8cc\J	.	8ee-\J	.	.	.
!LO:LB:g=original	!	!	!	!LO:LB:g=original	!	!	!	!	!
=146	=146	=146	=146	=146	=146	=146	=146	=146	=146
!	!	!LO:N:vis=2.	!	!	!	!	!	!	!
2A-\	.	2a-\	.	8r	.	8r	.	2cc\	-do-
.	.	.	.	16.cc\LL	.	16.ee-T\LL	.	.	.
.	.	.	.	(>32bn\JJk	.	(>32ddn\JJk	.	.	.
.	.	.	.	8cc\L)	.	8ee-\L)	.	.	.
.	.	.	.	8cc\J	.	8ee-\J	.	.	.
!	!	!	!	!	!	!LO:LB:g=original	!	!	!
=147	=147	=147	=147	=147	=147	=147	=147	=147	=147
!	!	!LO:N:vis=2.	!	!	!	!	!	!	!
2G\	.	2g\	.	8r	.	8r	.	2cc\	-ris-
.	.	.	.	16.cc\LL	.	16.ee-T\LL	.	.	.
.	.	.	.	32bn\JJk	.	32ddn\JJk	.	.	.
.	.	.	.	8cc\L	.	(>8ee-\L	.	.	.
.	.	.	.	(>8cc\J	.	8ee-\J)	.	.	.
=148	=148	=148	=148	=148	=148	=148	=148	=148	=148
!	!	!LO:N:vis=2.	!	!	!	!	!	!	!
!	!	!	!	!	!	!	!LO:DY:b:t=for.	!	!
2F#X\	.	2f#X\	.	8cc\L)	.	8ee-\L	f	4r	.
.	.	.	.	8cc\	.	8ee-\	.	.	.
.	.	.	.	8ee-\	.	8ccc\	.	4cc\	-que
.	.	.	.	8cc\J	.	8ee-\J	.	.	.
=149	=149	=149	=149	=149	=149	=149	=149	=149	=149
!	!	!	!	!	!	!	!	!LO:N:vis=4.	!
!	!	!	!	!	!	!	!LO:DY:b:t=pia.	!	!
!	!LO:DY:b:t=p.	!	!	!	!	!	!	!	!
2G;\	p	2g;\	.	4cc;\	.	4ee-;\	p	4cc;\	li-
.	.	.	.	4bn\	.	4dd-\	.	8.ddn\	.
.	.	.	.	.	.	.	.	16cc\	-li-
=150	=150	=150	=150	=150	=150	=150	=150	=150	=150
*	*	*	*	*2\left	*	*	*	*	*
2C/	.	2c/	.	2cc\	.	2cc\	.	2cc\	-o
*kcancel	*	*kcancel	*	*kcancel	*	*kcancel	*	*kcancel	*
=151||-	=151||	=151||	=151||	=151||	=151||	=151||	=151||	=151||	=151||
*k[b-]	*	*k[]	*	*k[b-]	*	*k[b-]	*	*k[b-]	*
*F:	*	*F:	*	*F:	*	*F:	*	*F:	*
!	!	!	!	!	!	!	!	!LO:TX:a:t=8	!
!	!	!LO:TX:a:t=P:problem=w źródle 4 kasowniki, brak bemola "b"	!	!LO:TX:a:t=P:problem=w źródle tylko 3 kasowniki, brak bemola "b" w tej linii	!	!LO:TX:a:t=P:problem=w źródle tylko 3 kasowniki, brak bemola "b" w tej linii	!	!LO:TX:a:t=P:problem=w źródle brak znaków oznaczających zmianę tonacji	!
!	!	!	!	!	!	!	!LO:DY:b:t=for.	!	!
!	!	!	!	!	!	!	!	!LO:N:vis=00	!
8r	.	8r	.	4ccc\	.	4ccc\	f	0r	.
!	!LO:DY:b:t=for	!	!	!	!	!	!	!	!
8A\L	f	8a\L	.	.	.	.	.	.	.
*	*	*	*	*2\right	*	*	*	*	*
8G\	.	8g\	.	4ccc\	.	4ccc\	.	.	.
8F\J	.	8f\J	.	.	.	.	.	.	.
=152	=152	=152	=152	=152	=152	=152	=152	=152	=152
8r	.	8r	.	4.ccc\	.	4.ccc\	.	.	.
8A\L	.	8a\L	.	.	.	.	.	.	.
8B-\	.	8b\	.	.	.	.	.	.	.
8c\J	.	8cc\J	.	(>16bb-\LL	.	(>16bb-\LL	.	.	.
.	.	.	.	16aa\JJ)	.	16aa\JJ)	.	.	.
=153	=153	=153	=153	=153	=153	=153	=153	=153	=153
8r	.	8r	.	(>8.gg\L	.	8.gg\L	.	.	.
!LO:TX:a:t=P:problem=mixed beam	!	!	!	!	!	!	!	!	!
8B-\L	.	8dd\L	.	.	.	.	.	.	.
.	.	.	.	32aa\LL	.	32aa\LL	.	.	.
.	.	.	.	32bb-\JJJ)	.	32bb-\JJJ	.	.	.
!	!	!	!	!LO:LB:g=original	!	!	!	!	!
8c\	.	8cc\	.	8aa\L	.	8aa\L	.	.	.
8C/J	.	8e\J	.	8gg\J	.	8gg\J	.	.	.
!LO:LB:g=original	!	!	!	!	!	!LO:LB:g=original	!	!	!
=154	=154	=154	=154	=154	=154	=154	=154	=154	=154
8r	.	8r	.	8.ffT\L	.	8.ffT\L	.	.	.
8F\L	.	8f\L	.	.	.	.	.	.	.
.	.	.	.	32ee\LL	.	32ee\LL	.	.	.
.	.	.	.	32ff\JJJ	.	32ff\JJJ	.	.	.
8G\	.	8g\	.	4cc\	.	4cc\	.	.	.
8A\J	.	8a\J	.	.	.	.	.	.	.
=155	=155	=155	=155	=155	=155	=155	=155	=155	=155
!	!	!	!	!	!	!	!	!LO:N:vis=00	!
8r	.	8r	.	8.ddT\L	.	8.ddT\L	.	0r	.
8B-\L	.	8b\L	.	.	.	.	.	.	.
.	.	.	.	32cc\LL	.	(>32cc\LL	.	.	.
.	.	.	.	32dd\JJJ	.	32dd\JJJ)	.	.	.
8A\	.	8a\	.	4bb-\	.	4bb-\	.	.	.
8G\J	.	8g\J	.	.	.	.	.	.	.
=156	=156	=156	=156	=156	=156	=156	=156	=156	=156
8r	.	8r	.	8.eet\L	.	8.eet\L	.	.	.
8c\L	.	8cc\L	.	.	.	.	.	.	.
.	.	.	.	32dd\LL	.	32dd\LL	.	.	.
.	.	.	.	32ee\JJJ	.	32ee\JJJ	.	.	.
8B-\	.	8b\	.	4ccc\	.	4ccc\	.	.	.
8A\J	.	8a\J	.	.	.	.	.	.	.
=157	=157	=157	=157	=157	=157	=157	=157	=157	=157
8r	.	8r	.	8.ffT\L	.	8.ffT\L	.	.	.
8d\L	.	8dd\L	.	.	.	.	.	.	.
.	.	.	.	32ee\LL	.	32ee\LL	.	.	.
.	.	.	.	32ff\JJJ	.	32ff\JJJ	.	.	.
8B-\	.	8b\	.	8ddd\L	.	8ddd\L	.	.	.
8G\J	.	8g\J	.	8bb-\J	.	8bb-\J	.	.	.
=158	=158	=158	=158	=158	=158	=158	=158	=158	=158
.	.	.	.	8qqaa/	.	8qqaa/	.	.	.
2c\	.	2e\	.	2gg\	.	2gg\	.	.	.
!LO:TX:b:t=Da Capo  \nusqe ad Sign&colon; Finis	!	!LO:TX:b:t=Da capo \nab initio \nusqe a [segno]	!	!LO:TX:b:i:t=Da Capo. usqe ad Sig&colon; \nFinis	!	!LO:TX:b:i:t=Da Capo. usqe ad Sig&colon; Finis	!	!LO:TX:b:t=Da capo  \nusqe ad Signu(m) \nFinis	!
==	==	==-	==	==	==	==	==	==	==
*-	*-	*-	*-	*-	*-	*-	*-	*-	*-
!!!system-decoration: s1[g1]s5
!!!RDF**kern: > = above
!!!RDF**kern: < = below
!!!RDF**kern: | = vertical stroke
!!!EED: Antoni Szymański
!!!EEV: 2020-11-04
!!!ENC: Marcin Jachim
!!!END: 2020-05-02
